;FLAVOR:Marlin
;TIME:2951
;Filament used: 2.42939m
;Layer height: 0.16
;MINX:95.7
;MINY:95.7
;MINZ:0.2
;MAXX:139.3
;MAXY:139.3
;MAXZ:5.8
;Generated with Cura_SteamEngine 5.4.0
M140 S50
M105
M190 S50
M104 S200
M105
M109 S200
M82 ;absolute extrusion mode
; Ender 3 Custom Start G-code
G92 E0 ; Reset Extruder
G28 ; Home all axes
G1 Z2.0 F3000 ; Move Z Axis up little to prevent scratching of Heat Bed
G1 X0.1 Y20 Z0.3 F5000.0 ; Move to start position
G1 X0.1 Y200.0 Z0.3 F1500.0 E15 ; Draw the first line
G1 X0.4 Y200.0 Z0.3 F5000.0 ; Move to side a little
G1 X0.4 Y20 Z0.3 F1500.0 E30 ; Draw the second line
G92 E0 ; Reset Extruder
G1 Z2.0 F3000 ; Move Z Axis up little to prevent scratching of Heat Bed
G1 X5 Y20 Z0.3 F5000.0 ; Move over to prevent blob squish
G92 E0
G92 E0
G1 F2700 E-5
;LAYER_COUNT:29
;LAYER:0
M107
;MESH:small.stl
G0 F6000 X118.488 Y123.745 Z0.2
;TYPE:WALL-INNER
G1 F2700 E0
G1 F1200 X118.451 Y123.859 E0.00399
G1 X118.295 Y124.104 E0.01365
G1 X118.034 Y124.317 E0.02485
G1 X117.701 Y124.442 E0.03668
G1 X117.303 Y124.454 E0.04993
G1 X116.948 Y124.314 E0.06262
G1 X116.703 Y124.1 E0.07344
G1 X116.551 Y123.864 E0.08277
G1 X116.511 Y123.743 E0.08701
G1 X116.436 Y123.846 E0.09125
G1 X116.169 Y124.064 E0.10271
G1 X115.58 Y124.189 E0.12274
G1 X115.17 Y124.043 E0.13722
G1 X114.927 Y123.861 E0.14731
G1 X114.703 Y123.532 E0.16055
G1 X114.63 Y123.254 E0.17011
G1 X114.629 Y123.134 E0.1741
G1 X114.534 Y123.205 E0.17805
G1 X114.265 Y123.309 E0.18764
G1 X113.89 Y123.332 E0.20014
G1 X113.545 Y123.221 E0.21219
G1 X113.194 Y122.95 E0.22694
G1 X112.972 Y122.429 E0.24578
G1 X112.999 Y122.005 E0.25991
G1 X112.627 Y122.024 E0.2723
G1 X112.317 Y121.953 E0.28287
G1 X112.05 Y121.784 E0.29338
G1 X111.916 Y121.648 E0.29973
G1 X111.669 Y121.164 E0.31781
G1 X111.679 Y120.767 E0.33101
G1 X111.829 Y120.393 E0.34442
G1 X111.468 Y120.297 E0.35684
G1 X111.201 Y120.138 E0.36718
G1 X110.948 Y119.837 E0.38026
G1 X110.845 Y119.514 E0.39153
G1 X110.842 Y119.149 E0.40367
G1 X110.974 Y118.784 E0.41658
G1 X111.158 Y118.558 E0.42627
G1 X111.255 Y118.488 E0.43025
G1 X111.141 Y118.451 E0.43424
G1 X110.896 Y118.295 E0.4439
G1 X110.658 Y117.987 E0.45685
G1 X110.547 Y117.629 E0.46931
G1 X110.548 Y117.361 E0.47823
G1 X110.644 Y117.042 E0.48931
G1 X110.901 Y116.702 E0.50348
G1 X111.141 Y116.547 E0.51298
G1 X111.256 Y116.51 E0.517
G1 X111.154 Y116.437 E0.52117
G1 X110.978 Y116.22 E0.53047
G1 X110.842 Y115.85 E0.54358
G1 X110.845 Y115.48 E0.55588
G1 X110.931 Y115.221 E0.56496
G1 X111.144 Y114.921 E0.5772
G1 X111.468 Y114.703 E0.59019
G1 X111.747 Y114.629 E0.59979
G1 X111.867 Y114.628 E0.60378
G1 X111.796 Y114.533 E0.60772
G1 X111.691 Y114.265 E0.6173
G1 X111.677 Y113.873 E0.63034
G1 X111.8 Y113.516 E0.6429
G1 X111.997 Y113.26 E0.65365
G1 X112.256 Y113.082 E0.6641
G1 X112.63 Y112.977 E0.67702
G1 X112.915 Y112.994 E0.68651
G1 X113.029 Y113.031 E0.6905
G1 X112.992 Y112.917 E0.69449
G1 X112.976 Y112.63 E0.70405
G1 X113.059 Y112.302 E0.7153
G1 X113.253 Y111.989 E0.72755
G1 X113.531 Y111.793 E0.73886
G1 X113.921 Y111.661 E0.75256
G1 X114.266 Y111.69 E0.76407
G1 X114.607 Y111.829 E0.77632
G1 X114.703 Y111.468 E0.78874
G1 X114.884 Y111.165 E0.80048
G1 X115.185 Y110.942 E0.81294
G1 X115.483 Y110.845 E0.82337
G1 X115.851 Y110.842 E0.83561
G1 X116.215 Y110.974 E0.84848
G1 X116.441 Y111.157 E0.85816
G1 X116.512 Y111.256 E0.86221
G1 X116.549 Y111.14 E0.86626
G1 X116.706 Y110.896 E0.87591
G1 X117.013 Y110.658 E0.88883
G1 X117.37 Y110.547 E0.90126
G1 X117.641 Y110.548 E0.91028
G1 X117.958 Y110.644 E0.92129
G1 X118.298 Y110.901 E0.93547
G1 X118.453 Y111.141 E0.94497
G1 X118.49 Y111.255 E0.94896
G1 X118.563 Y111.154 E0.9531
G1 X118.78 Y110.978 E0.96239
G1 X119.15 Y110.842 E0.97551
G1 X119.529 Y110.847 E0.98811
G1 X119.841 Y110.952 E0.99906
G1 X120.115 Y111.183 E1.01098
G1 X120.287 Y111.438 E1.02121
G1 X120.37 Y111.746 E1.03182
G1 X120.371 Y111.865 E1.03578
G1 X120.466 Y111.795 E1.0397
G1 X120.735 Y111.691 E1.0493
G1 X121.127 Y111.677 E1.06234
G1 X121.483 Y111.799 E1.07486
G1 X121.697 Y111.955 E1.08367
G1 X121.918 Y112.254 E1.09603
G1 X122.023 Y112.629 E1.10899
G1 X122.005 Y112.922 E1.11875
G1 X121.969 Y113.03 E1.12254
G1 X122.076 Y112.993 E1.1263
G1 X122.37 Y112.976 E1.1361
G1 X122.736 Y113.068 E1.14865
G1 X123.027 Y113.276 E1.16055
G1 X123.244 Y113.58 E1.17297
G1 X123.329 Y113.922 E1.18469
G1 X123.31 Y114.263 E1.19605
G1 X123.171 Y114.609 E1.20845
G1 X123.534 Y114.705 E1.22094
G1 X123.88 Y114.948 E1.235
G1 X124.058 Y115.184 E1.24483
G1 X124.154 Y115.483 E1.25528
G1 X124.158 Y115.851 E1.26752
G1 X124.026 Y116.215 E1.2804
G1 X123.842 Y116.443 E1.29014
G1 X123.745 Y116.512 E1.2941
G1 X123.859 Y116.548 E1.29808
G1 X124.103 Y116.705 E1.30773
G1 X124.342 Y117.013 E1.32069
G1 X124.452 Y117.362 E1.33286
G1 X124.444 Y117.693 E1.34388
G1 X124.339 Y118.009 E1.35495
G1 X124.126 Y118.276 E1.36631
G1 X123.859 Y118.453 E1.37697
G1 X123.744 Y118.49 E1.38098
G1 X123.842 Y118.559 E1.38497
G1 X124.022 Y118.779 E1.39443
G1 X124.158 Y119.15 E1.40757
G1 X124.171 Y119.474 E1.41835
G1 X124.047 Y119.845 E1.43136
G1 X123.82 Y120.112 E1.44302
G1 X123.563 Y120.285 E1.45332
G1 X123.252 Y120.37 E1.46405
G1 X123.134 Y120.37 E1.46797
G1 X123.205 Y120.464 E1.47189
G1 X123.309 Y120.735 E1.48154
G1 X123.323 Y121.127 E1.49459
G1 X123.2 Y121.484 E1.50715
G1 X123.044 Y121.698 E1.51596
G1 X122.747 Y121.917 E1.52823
G1 X122.37 Y122.024 E1.54126
G1 X122.079 Y122.007 E1.55096
G1 X121.971 Y121.971 E1.55475
G1 X122.007 Y122.079 E1.55853
G1 X122.024 Y122.37 E1.56823
G1 X121.917 Y122.748 E1.58129
G1 X121.691 Y123.05 E1.59384
G1 X121.47 Y123.207 E1.60286
G1 X121.124 Y123.323 E1.61499
G1 X120.942 Y123.331 E1.62105
G1 X120.474 Y123.207 E1.63716
G1 X120.371 Y123.132 E1.64139
G1 X120.371 Y123.26 E1.64565
G1 X120.275 Y123.572 E1.65651
G1 X120.118 Y123.814 E1.6661
G1 X119.819 Y124.058 E1.67894
G1 X119.516 Y124.155 E1.68952
G1 X119.149 Y124.158 E1.70173
G1 X118.784 Y124.026 E1.71464
G1 X118.558 Y123.842 E1.72433
G1 X118.488 Y123.745 E1.72831
G1 F2700 E-3.27169
G0 F6000 X118.53 Y124
G0 X118.142 Y124.476
G0 X116.773 Y137.458
G0 X117.167 Y138.894
G1 F2700 E1.72831
G1 F1200 X117.502 Y138.9 E1.73945
G1 X117.833 Y138.893 E1.75046
G1 X118.048 Y138.461 E1.76651
G1 X118.195 Y138.126 E1.77868
G1 X118.313 Y137.824 E1.78947
G1 X118.463 Y137.389 E1.80477
G1 X118.614 Y136.741 E1.8269
G1 X118.651 Y136.397 E1.83841
G1 X118.652 Y135.886 E1.8554
G1 X118.711 Y135.553 E1.86665
G1 X118.865 Y135.151 E1.88097
G1 X119.169 Y134.855 E1.89508
G1 X119.396 Y134.751 E1.90339
G1 X120.21 Y134.638 E1.93072
G1 X121.06 Y134.486 E1.95944
G1 X121.399 Y134.552 E1.97093
G1 X121.84 Y134.879 E1.98919
G1 X122.088 Y135.346 E2.00677
G1 X122.241 Y135.82 E2.02334
G1 X122.344 Y136.05 E2.03172
G1 X122.525 Y136.385 E2.04439
G1 X122.823 Y136.836 E2.06236
G1 X123.008 Y137.083 E2.07263
G1 X123.232 Y137.354 E2.08432
G1 X123.49 Y137.639 E2.09711
G1 X123.792 Y137.948 E2.11148
G1 X124.429 Y137.744 E2.13373
G1 X124.496 Y137.289 E2.14902
G1 X124.533 Y136.917 E2.16146
G1 X124.555 Y136.576 E2.17282
G1 X124.555 Y136.016 E2.19145
G1 X124.508 Y135.459 E2.21004
G1 X124.437 Y135.125 E2.2214
G1 X124.274 Y134.617 E2.23914
G1 X124.222 Y134.154 E2.25464
G1 X124.327 Y133.657 E2.27153
G1 X124.571 Y133.35 E2.28458
G1 X125.252 Y133.026 E2.30966
G1 X126.139 Y132.554 E2.34308
G1 X126.34 Y132.513 E2.3499
G1 X126.681 Y132.554 E2.36132
G1 X127.1 Y132.786 E2.37725
G1 X127.378 Y133.053 E2.39007
G1 X127.669 Y133.454 E2.40655
G1 X127.843 Y133.65 E2.41527
G1 X128.212 Y134.002 E2.43223
G1 X128.781 Y134.415 E2.45562
G1 X129.069 Y134.6 E2.467
G1 X129.396 Y134.789 E2.47956
G1 X129.806 Y135.005 E2.49498
G1 X130.344 Y134.61 E2.51718
G1 X130.264 Y134.136 E2.53316
G1 X130.181 Y133.757 E2.54607
G1 X130.096 Y133.434 E2.55718
G1 X130.011 Y133.164 E2.56659
G1 X129.827 Y132.673 E2.58403
G1 X129.608 Y132.21 E2.60107
G1 X129.244 Y131.707 E2.62172
G1 X129.081 Y131.375 E2.63402
G1 X128.985 Y131.008 E2.64664
G1 X129.023 Y130.585 E2.66076
G1 X129.15 Y130.365 E2.66921
G1 X129.773 Y129.763 E2.69802
G1 X130.368 Y129.147 E2.72651
G1 X130.547 Y129.045 E2.73336
G1 X130.904 Y128.977 E2.74545
G1 X131.353 Y129.073 E2.76072
G1 X131.703 Y129.243 E2.77366
G1 X132.202 Y129.603 E2.79413
G1 X132.679 Y129.83 E2.8117
G1 X133.157 Y130.009 E2.82867
G1 X133.483 Y130.109 E2.84002
G1 X133.795 Y130.19 E2.85074
G1 X134.277 Y130.291 E2.86712
G1 X134.609 Y130.35 E2.87833
G1 X135.004 Y129.802 E2.9008
G1 X134.797 Y129.406 E2.91566
G1 X134.596 Y129.064 E2.92886
G1 X134.238 Y128.527 E2.95032
G1 X133.914 Y128.122 E2.96757
G1 X133.654 Y127.845 E2.98021
G1 X133.467 Y127.678 E2.98855
G1 X133.104 Y127.414 E3.00348
G1 X132.8 Y127.117 E3.01761
G1 X132.598 Y126.8 E3.03011
G1 X132.516 Y126.449 E3.0421
G1 X132.517 Y126.278 E3.04779
G1 X132.582 Y126.081 E3.05469
G1 X132.958 Y125.379 E3.08118
G1 X133.337 Y124.615 E3.10954
G1 X133.483 Y124.448 E3.11692
G1 X133.869 Y124.251 E3.13133
G1 X134.276 Y124.226 E3.1449
G1 X134.677 Y124.293 E3.15842
G1 X135.123 Y124.436 E3.174
G1 X135.448 Y124.506 E3.18505
G1 X135.974 Y124.553 E3.20262
G1 X136.583 Y124.554 E3.22287
G1 X136.931 Y124.532 E3.23447
G1 X137.307 Y124.495 E3.24704
G1 X137.743 Y124.43 E3.2617
G1 X137.949 Y123.795 E3.2839
G1 X137.618 Y123.468 E3.29938
G1 X137.322 Y123.206 E3.31253
G1 X137.077 Y123.004 E3.32309
G1 X136.834 Y122.821 E3.3332
G1 X136.401 Y122.535 E3.35046
G1 X135.946 Y122.286 E3.36772
G1 X135.382 Y122.099 E3.38748
G1 X135.015 Y121.914 E3.40115
G1 X134.642 Y121.579 E3.41782
G1 X134.511 Y121.23 E3.43022
G1 X134.496 Y121.045 E3.43639
G1 X134.612 Y120.351 E3.4598
G1 X134.756 Y119.359 E3.49314
G1 X134.909 Y119.074 E3.5039
G1 X135.355 Y118.747 E3.52229
G1 X135.884 Y118.652 E3.54017
G1 X136.398 Y118.652 E3.55726
G1 X136.74 Y118.615 E3.5687
G1 X137.248 Y118.498 E3.58604
G1 X137.51 Y118.421 E3.59512
G1 X137.838 Y118.306 E3.60668
G1 X138.154 Y118.182 E3.61798
G1 X138.461 Y118.048 E3.62912
G1 X138.896 Y117.833 E3.64526
G1 X138.893 Y117.165 E3.66747
G1 X138.451 Y116.948 E3.68385
G1 X137.823 Y116.687 E3.70647
G1 X137.278 Y116.51 E3.72553
G1 X136.742 Y116.386 E3.74383
G1 X136.398 Y116.348 E3.75534
G1 X135.884 Y116.348 E3.77243
G1 X135.337 Y116.25 E3.79092
G1 X134.908 Y115.9 E3.80933
G1 X134.818 Y115.771 E3.81456
G1 X134.749 Y115.565 E3.82179
G1 X134.638 Y114.797 E3.8476
G1 X134.473 Y113.867 E3.87901
G1 X134.552 Y113.602 E3.88821
G1 X134.877 Y113.163 E3.90638
G1 X135.341 Y112.917 E3.92384
G1 X135.822 Y112.757 E3.9407
G1 X136.059 Y112.652 E3.94933
G1 X136.348 Y112.494 E3.96028
G1 X136.842 Y112.173 E3.97988
G1 X137.094 Y111.982 E3.99039
G1 X137.335 Y111.784 E4.00077
G1 X137.635 Y111.515 E4.01417
G1 X137.947 Y111.207 E4.02875
G1 X137.744 Y110.571 E4.05096
G1 X137.281 Y110.502 E4.06652
G1 X136.576 Y110.445 E4.09005
G1 X135.865 Y110.449 E4.1137
G1 X135.219 Y110.532 E4.13536
G1 X134.628 Y110.721 E4.156
G1 X134.131 Y110.781 E4.17265
G1 X133.716 Y110.685 E4.18682
G1 X133.426 Y110.496 E4.19833
G1 X133.289 Y110.309 E4.20604
G1 X133.032 Y109.76 E4.2262
G1 X132.55 Y108.854 E4.26033
G1 X132.516 Y108.513 E4.27173
G1 X132.681 Y108.02 E4.28902
G1 X133.054 Y107.621 E4.30719
G1 X133.461 Y107.326 E4.32391
G1 X133.717 Y107.098 E4.33531
G1 X134.072 Y106.691 E4.35327
G1 X134.269 Y106.431 E4.36412
G1 X134.605 Y105.922 E4.38441
G1 X134.786 Y105.615 E4.39626
G1 X135.005 Y105.194 E4.41204
G1 X134.611 Y104.656 E4.43422
G1 X134.135 Y104.736 E4.45028
G1 X133.459 Y104.897 E4.47339
G1 X133.181 Y104.983 E4.48307
G1 X132.679 Y105.17 E4.50089
G1 X132.337 Y105.332 E4.51347
G1 X132.113 Y105.461 E4.52207
G1 X131.703 Y105.755 E4.53885
G1 X131.398 Y105.905 E4.55016
G1 X130.978 Y106.022 E4.56466
G1 X130.571 Y105.955 E4.57838
G1 X130.375 Y105.855 E4.58569
G1 X129.775 Y105.24 E4.61427
G1 X129.144 Y104.623 E4.64362
G1 X129.007 Y104.311 E4.65496
G1 X128.994 Y104.104 E4.66186
G1 X129.041 Y103.741 E4.67403
G1 X129.23 Y103.31 E4.68968
G1 X129.535 Y102.896 E4.70679
G1 X129.661 Y102.678 E4.71516
G1 X129.824 Y102.338 E4.7277
G1 X130.017 Y101.82 E4.74609
G1 X130.109 Y101.516 E4.75665
G1 X130.281 Y100.792 E4.7814
G1 X130.34 Y100.382 E4.79518
G1 X129.802 Y99.997 E4.81718
G1 X129.391 Y100.213 E4.83263
G1 X129.051 Y100.411 E4.84571
G1 X128.766 Y100.596 E4.85701
G1 X128.214 Y101 E4.87976
G1 X127.847 Y101.347 E4.89656
G1 X127.678 Y101.534 E4.90495
G1 X127.376 Y101.945 E4.92191
G1 X127.031 Y102.278 E4.93786
G1 X126.665 Y102.452 E4.95134
G1 X126.342 Y102.475 E4.96211
G1 X126.141 Y102.444 E4.96887
G1 X125.383 Y102.045 E4.99736
G1 X124.6 Y101.662 E5.02635
G1 X124.343 Y101.341 E5.04003
G1 X124.273 Y101.182 E5.04581
G1 X124.225 Y100.754 E5.06013
G1 X124.277 Y100.371 E5.07299
G1 X124.438 Y99.871 E5.09046
G1 X124.51 Y99.529 E5.10208
G1 X124.553 Y99.018 E5.11914
G1 X124.56 Y98.715 E5.12922
G1 X124.554 Y98.399 E5.13973
G1 X124.495 Y97.698 E5.16313
G1 X124.43 Y97.255 E5.17802
G1 X123.793 Y97.052 E5.20026
G1 X123.46 Y97.392 E5.21609
G1 X123.215 Y97.667 E5.22834
G1 X122.997 Y97.932 E5.23975
G1 X122.594 Y98.493 E5.26272
G1 X122.284 Y99.058 E5.28416
G1 X122.085 Y99.665 E5.30541
G1 X121.836 Y100.122 E5.32272
G1 X121.473 Y100.415 E5.33823
G1 X121.093 Y100.518 E5.35133
G1 X120.222 Y100.364 E5.38074
G1 X119.456 Y100.26 E5.40646
G1 X119.252 Y100.194 E5.41359
G1 X119.011 Y100.02 E5.42347
G1 X118.758 Y99.661 E5.43808
G1 X118.654 Y99.11 E5.45673
G1 X118.652 Y98.601 E5.47366
G1 X118.616 Y98.267 E5.48483
G1 X118.492 Y97.729 E5.5032
G1 X118.407 Y97.446 E5.51303
G1 X118.307 Y97.161 E5.52307
G1 X118.181 Y96.841 E5.53451
G1 X118.03 Y96.498 E5.54697
G1 X117.833 Y96.106 E5.56157
G1 X117.166 Y96.105 E5.58375
G1 X116.958 Y96.524 E5.59931
G1 X116.813 Y96.853 E5.61127
G1 X116.687 Y97.177 E5.62283
G1 X116.51 Y97.72 E5.64183
G1 X116.448 Y97.968 E5.65033
G1 X116.348 Y98.493 E5.6681
G1 X116.346 Y99.111 E5.68866
G1 X116.287 Y99.454 E5.70023
G1 X116.142 Y99.845 E5.7141
G1 X115.792 Y100.178 E5.73017
G1 X115.604 Y100.249 E5.73686
G1 X114.807 Y100.36 E5.76362
G1 X113.867 Y100.527 E5.79537
G1 X113.598 Y100.446 E5.80472
G1 X113.163 Y100.122 E5.82276
G1 X112.917 Y99.66 E5.84017
G1 X112.756 Y99.176 E5.85713
G1 X112.615 Y98.857 E5.86873
G1 X112.335 Y98.391 E5.88681
G1 X111.996 Y97.924 E5.90601
G1 X111.759 Y97.637 E5.91839
G1 X111.518 Y97.367 E5.93043
G1 X111.207 Y97.053 E5.94512
G1 X110.571 Y97.257 E5.96734
G1 X110.504 Y97.718 E5.98283
G1 X110.466 Y98.094 E5.9954
G1 X110.445 Y98.425 E6.00643
G1 X110.441 Y98.766 E6.01778
G1 X110.463 Y99.241 E6.03359
G1 X110.53 Y99.765 E6.05116
G1 X110.721 Y100.368 E6.0722
G1 X110.778 Y100.842 E6.08808
G1 X110.686 Y101.281 E6.103
G1 X110.496 Y101.574 E6.11461
G1 X110.309 Y101.711 E6.12232
G1 X109.76 Y101.968 E6.14248
G1 X108.854 Y102.45 E6.17662
G1 X108.507 Y102.478 E6.1882
G1 X108.016 Y102.323 E6.20532
G1 X107.629 Y101.951 E6.22317
G1 X107.329 Y101.542 E6.24005
G1 X107.153 Y101.346 E6.24881
G1 X106.883 Y101.09 E6.26118
G1 X106.473 Y100.763 E6.27862
G1 X106.195 Y100.568 E6.28992
G1 X105.912 Y100.389 E6.30106
G1 X105.589 Y100.203 E6.31345
G1 X105.193 Y99.994 E6.32835
G1 X104.656 Y100.392 E6.35058
G1 X104.735 Y100.862 E6.36643
G1 X104.892 Y101.523 E6.38903
G1 X105.027 Y101.96 E6.40424
G1 X105.168 Y102.315 E6.41694
G1 X105.33 Y102.66 E6.42962
G1 X105.467 Y102.898 E6.43875
G1 X105.77 Y103.312 E6.45582
G1 X106.025 Y103.881 E6.47656
G1 X105.982 Y104.406 E6.49408
G1 X105.87 Y104.622 E6.50217
G1 X105.225 Y105.238 E6.53183
G1 X104.637 Y105.838 E6.55977
G1 X104.461 Y105.939 E6.56652
G1 X104.044 Y106.027 E6.5807
G1 X103.627 Y105.922 E6.595
G1 X103.299 Y105.757 E6.60721
G1 X102.9 Y105.468 E6.6236
G1 X102.673 Y105.337 E6.63232
G1 X102.32 Y105.17 E6.6453
G1 X101.829 Y104.986 E6.66274
G1 X101.215 Y104.813 E6.68396
G1 X100.839 Y104.732 E6.69675
G1 X100.384 Y104.656 E6.7121
G1 X99.997 Y105.198 E6.73425
G1 X100.207 Y105.597 E6.74924
G1 X100.407 Y105.939 E6.76242
G1 X100.6 Y106.242 E6.77437
G1 X100.921 Y106.683 E6.79251
G1 X101.102 Y106.894 E6.80176
G1 X101.348 Y107.156 E6.81371
G1 X101.535 Y107.323 E6.82205
G1 X101.937 Y107.619 E6.83865
G1 X102.209 Y107.895 E6.85154
G1 X102.451 Y108.309 E6.86749
G1 X102.487 Y108.66 E6.87923
G1 X102.442 Y108.872 E6.88644
G1 X102.039 Y109.631 E6.91502
G1 X101.662 Y110.385 E6.94306
G1 X101.548 Y110.517 E6.94886
G1 X101.312 Y110.675 E6.9583
