;FLAVOR:Marlin
;TIME:5485
;Filament used: 3.02342m
;Layer height: 0.16
;MINX:67.323
;MINY:110.345
;MINZ:0.2
;MAXX:167.677
;MAXY:124.667
;MAXZ:23.64
;Generated with Cura_SteamEngine 5.4.0
M140 S50
M105
M190 S50
M104 S200
M105
M109 S200
M82 ;absolute extrusion mode
; Ender 3 Custom Start G-code
G92 E0 ; Reset Extruder
G28 ; Home all axes
G1 Z2.0 F3000 ; Move Z Axis up little to prevent scratching of Heat Bed
G1 X0.1 Y20 Z0.3 F5000.0 ; Move to start position
G1 X0.1 Y200.0 Z0.3 F1500.0 E15 ; Draw the first line
G1 X0.4 Y200.0 Z0.3 F5000.0 ; Move to side a little
G1 X0.4 Y20 Z0.3 F1500.0 E30 ; Draw the second line
G92 E0 ; Reset Extruder
G1 Z2.0 F3000 ; Move Z Axis up little to prevent scratching of Heat Bed
G1 X5 Y20 Z0.3 F5000.0 ; Move over to prevent blob squish
G92 E0
G92 E0
G1 F2700 E-5
;LAYER_COUNT:123
;LAYER:0
M107
;MESH:Copy of stringart  string art machine (1).stl
G0 F6000 X87.227 Y123.002 Z0.2
;TYPE:WALL-INNER
G1 F2700 E0
G1 F1200 X147.774 Y123.002 E2.0138
G1 X147.774 Y114.569 E2.29428
G1 X147.813 Y114.288 E2.30372
G1 X147.974 Y113.968 E2.31563
G1 X148.303 Y113.686 E2.33005
G1 X148.641 Y113.569 E2.34194
G1 X166.024 Y113.568 E2.9201
G1 X166.024 Y111.998 E2.97232
G1 X141.708 Y111.999 E3.78108
G1 X141.707 Y120.859 E4.07576
G1 X141.668 Y121.14 E4.0852
G1 X141.507 Y121.46 E4.09711
G1 X141.178 Y121.742 E4.11152
G1 X140.839 Y121.859 E4.12345
G1 X94.291 Y121.859 E5.67164
G1 X93.82 Y121.742 E5.68778
G1 X93.491 Y121.459 E5.70222
G1 X93.33 Y121.14 E5.7141
G1 X93.291 Y120.859 E5.72354
G1 X93.291 Y111.998 E6.01826
G1 X68.976 Y111.999 E6.82698
G1 X68.976 Y113.569 E6.8792
G1 X86.226 Y113.569 E7.45293
G1 X86.697 Y113.686 E7.46907
G1 X87.027 Y113.968 E7.48351
G1 X87.187 Y114.288 E7.49541
G1 X87.226 Y114.569 E7.50485
G1 X87.227 Y123.002 E7.78533
G0 F6000 X86.827 Y123.402
G1 F1200 X148.174 Y123.402 E9.82574
G1 X148.174 Y114.446 E10.12362
G1 X148.294 Y114.208 E10.13248
G1 X148.491 Y114.039 E10.14112
G1 X148.693 Y113.969 E10.14823
G1 X166.424 Y113.968 E10.73796
G1 X166.424 Y111.598 E10.81679
G1 X141.308 Y111.599 E11.65215
G1 X141.307 Y120.983 E11.96426
G1 X141.187 Y121.22 E11.9731
G1 X140.99 Y121.389 E11.98173
G1 X140.788 Y121.459 E11.98884
G1 X94.291 Y121.459 E13.53534
G1 X94.008 Y121.389 E13.54503
G1 X93.811 Y121.219 E13.55369
G1 X93.691 Y120.983 E13.56249
G1 X93.691 Y111.598 E13.87464
G1 X68.576 Y111.599 E14.70997
G1 X68.576 Y113.969 E14.7888
G1 X86.226 Y113.969 E15.37584
G1 X86.509 Y114.039 E15.38553
G1 X86.707 Y114.208 E15.39419
G1 X86.826 Y114.446 E15.40304
G1 X86.827 Y123.402 E15.70092
G1 F2700 E10.70092
G0 F6000 X87.096 Y123.132
G0 X87.156 Y113.872
G0 X86.773 Y113.544
G0 X69.148 Y113.397
G0 X69.148 Y112.171
G0 X93.119 Y112.17
G0 X93.362 Y121.555
G0 X93.744 Y121.884
G0 X141.535 Y121.687
G0 X141.607 Y120.98
G0 X140.867 Y120.98
;TYPE:WALL-OUTER
G1 F2700 E15.70092
G1 F1200 X140.742 Y121.057 E15.7058
G1 X94.214 Y121.059 E17.25333
G1 X94.091 Y120.903 E17.25994
G1 X94.091 Y111.198 E17.58273
G1 X68.176 Y111.199 E18.44466
G1 X68.176 Y114.369 E18.5501
G1 X86.303 Y114.369 E19.15301
G1 X86.426 Y114.526 E19.15964
G1 X86.427 Y123.802 E19.46816
G1 X148.574 Y123.802 E21.53518
G1 X148.574 Y114.526 E21.8437
G1 X148.614 Y114.448 E21.84661
G1 X148.739 Y114.371 E21.8515
G1 X166.824 Y114.368 E22.45301
G1 X166.824 Y111.198 E22.55844
G1 X140.908 Y111.199 E23.42041
G1 X140.907 Y120.902 E23.74313
G1 X140.867 Y120.98 E23.74605
G1 F2700 E18.74605
G0 F6000 X141.607 Y120.98
G0 X141.88 Y112.171
G0 X165.852 Y112.17
G0 X165.852 Y113.396
G0 X148.228 Y113.543
G0 X147.919 Y113.809
G0 X147.674 Y122.642
G0 X147.414 Y122.642
;TYPE:SKIN
G1 F2700 E23.74605
G1 F1182.3 X140.997 Y122.637 E23.96268
G1 F1162.2 X117.596 Y122.635 E24.7663
G1 F1156.6 X94.195 Y122.633 E25.5738
G1 F1176.5 X93.628 Y122.641 E25.59304
G1 F1200 X87.587 Y122.642 E25.79397
G1 X87.585 Y114.548 E26.06317
G1 X87.534 Y114.183 E26.07543
G1 X87.317 Y113.747 E26.09163
G1 X86.865 Y113.361 E26.1114
G1 X86.269 Y113.214 E26.13182
G1 X69.336 Y113.209 E26.69501
G1 X69.336 Y112.359 E26.72328
G1 X92.931 Y112.359 E27.50805
G1 X92.932 Y120.88 E27.79146
G1 X92.982 Y121.245 E27.80372
G1 X93.203 Y121.682 E27.82001
G1 F1188.1 X93.648 Y122.066 E27.83975
G1 F1165 X94.246 Y122.222 E27.86092
G1 F1153.8 X140.895 Y122.224 E29.47454
G1 F1179.4 X141.355 Y122.06 E29.49106
G1 F1200 X141.794 Y121.684 E29.51029
G1 X142.016 Y121.244 E29.52668
G1 X142.066 Y120.88 E29.5389
G1 X142.068 Y112.359 E29.82231
G1 X165.664 Y112.358 E30.60712
G1 X165.664 Y113.208 E30.63539
G1 X148.587 Y113.211 E31.20337
G1 X148.127 Y113.367 E31.21953
G1 X147.687 Y113.744 E31.2388
G1 X147.465 Y114.184 E31.25519
G1 X147.415 Y114.548 E31.26741
G1 X147.414 Y122.642 E31.53662
G0 F6000 X147.674 Y122.642
G0 X147.946 Y113.741
G0 X165.852 Y113.396
G0 X165.924 Y112.854
G0 X165.463 Y112.854
G1 F1200 X165.167 Y112.558 E31.55054
G0 F6000 X165.051 Y113.008
G1 F1200 X164.601 Y112.558 E31.57171
G0 F6000 X164.485 Y113.008
G1 F1200 X164.036 Y112.558 E31.59285
G0 F6000 X163.92 Y113.008
G1 F1200 X163.47 Y112.558 E31.61402
G0 F6000 X163.354 Y113.008
G1 F1200 X162.904 Y112.558 E31.63518
G0 F6000 X162.789 Y113.009
G1 F1200 X162.338 Y112.558 E31.6564
G0 F6000 X162.223 Y113.009
G1 F1200 X161.773 Y112.558 E31.67759
G0 F6000 X161.658 Y113.009
G1 F1200 X161.207 Y112.558 E31.6988
G0 F6000 X161.093 Y113.009
G1 F1200 X160.641 Y112.558 E31.72004
G0 F6000 X160.527 Y113.009
G1 F1200 X160.076 Y112.558 E31.74125
G0 F6000 X159.961 Y113.009
G1 F1200 X159.51 Y112.558 E31.76246
G0 F6000 X159.396 Y113.009
G1 F1200 X158.944 Y112.558 E31.7837
G0 F6000 X158.831 Y113.01
G1 F1200 X158.379 Y112.558 E31.80496
G0 F6000 X158.265 Y113.01
G1 F1200 X157.813 Y112.558 E31.82622
G0 F6000 X157.699 Y113.01
G1 F1200 X157.247 Y112.558 E31.84748
G0 F6000 X157.133 Y113.01
G1 F1200 X156.682 Y112.558 E31.86872
G0 F6000 X156.568 Y113.011
G1 F1200 X156.116 Y112.558 E31.89001
G0 F6000 X156.003 Y113.011
G1 F1200 X155.55 Y112.558 E31.91131
G0 F6000 X155.437 Y113.011
G1 F1200 X154.985 Y112.558 E31.9326
G0 F6000 X154.872 Y113.011
G1 F1200 X154.419 Y112.558 E31.95391
G0 F6000 X154.306 Y113.011
G1 F1200 X153.853 Y112.558 E31.97521
G0 F6000 X153.741 Y113.011
G1 F1200 X153.288 Y112.558 E31.99652
G0 F6000 X153.175 Y113.011
G1 F1200 X152.722 Y112.558 E32.01783
G0 F6000 X152.61 Y113.012
G1 F1200 X152.156 Y112.558 E32.03918
G0 F6000 X152.044 Y113.012
G1 F1200 X151.59 Y112.558 E32.06054
G0 F6000 X151.479 Y113.012
G1 F1200 X151.025 Y112.558 E32.08189
G0 F6000 X150.913 Y113.012
G1 F1200 X150.459 Y112.558 E32.10325
G0 F6000 X150.348 Y113.013
G1 F1200 X149.893 Y112.558 E32.12465
G0 F6000 X149.782 Y113.013
G1 F1200 X149.328 Y112.558 E32.14603
G0 F6000 X149.217 Y113.013
G1 F1200 X148.762 Y112.558 E32.16743
G0 F6000 X148.651 Y113.013
G1 F1200 X148.196 Y112.558 E32.18883
G0 F6000 X147.631 Y112.558
G1 F1200 X148.201 Y113.129 E32.21567
G0 F6000 X147.847 Y113.34
G1 F1200 X147.065 Y112.558 E32.25245
G0 F6000 X146.499 Y112.558
G1 F1200 X147.542 Y113.601 E32.30151
G0 F6000 X147.347 Y113.972
G1 F1200 X145.934 Y112.558 E32.36799
G0 F6000 X145.368 Y112.558
G1 F1200 X147.23 Y114.42 E32.45558
G0 F6000 X147.216 Y114.972
G1 F1200 X144.802 Y112.558 E32.56912
G0 F6000 X144.237 Y112.558
G1 F1200 X147.216 Y115.537 E32.70925
G0 F6000 X147.216 Y116.103
G1 F1200 X143.671 Y112.558 E32.87599
G0 F6000 X143.105 Y112.558
G1 F1200 X147.215 Y116.668 E33.06932
G0 F6000 X147.215 Y117.234
G1 F1200 X142.539 Y112.558 E33.28926
G0 F6000 X142.266 Y112.85
G1 F1200 X147.215 Y117.799 E33.52205
G0 F6000 X147.215 Y118.365
G1 F1200 X142.266 Y113.416 E33.75483
G0 F6000 X142.265 Y113.981
G1 F1200 X147.214 Y118.93 E33.98762
G0 F6000 X147.214 Y119.496
G1 F1200 X142.265 Y114.547 E34.2204
G0 F6000 X142.265 Y115.112
G1 F1200 X147.214 Y120.061 E34.45319
G0 F6000 X147.213 Y120.626
G1 F1200 X142.264 Y115.677 E34.68598
G0 F6000 X142.264 Y116.243
G1 F1200 X147.213 Y121.192 E34.91876
G0 F6000 X147.213 Y121.758
G1 F1200 X142.264 Y116.808 E35.15157
G0 F6000 X142.264 Y117.374
G1 F1200 X147.213 Y122.323 E35.38436
G0 F6000 X146.765 Y122.441
G1 F1200 X142.264 Y117.939 E35.59609
G0 F6000 X142.263 Y118.504
G1 F1200 X146.199 Y122.441 E35.78125
G0 F6000 X145.634 Y122.441
G1 F1200 X142.263 Y119.07 E35.93982
G0 F6000 X142.262 Y119.635
G1 F1200 X145.068 Y122.441 E36.0718
G0 F6000 X144.502 Y122.441
G1 F1200 X142.262 Y120.201 E36.17716
G0 F6000 X142.262 Y120.766
G1 F1200 X143.937 Y122.441 E36.25595
G0 F6000 X143.371 Y122.441
G1 F1200 X142.211 Y121.28 E36.31054
G0 F6000 X142.028 Y121.663
G1 F1200 X142.805 Y122.441 E36.34711
G0 F6000 X142.24 Y122.441
G1 F1200 X141.768 Y121.969 E36.36931
G0 F6000 X141.463 Y122.23
G1 F1200 X141.674 Y122.441 E36.37923
G1 F2700 E31.37923
G0 F6000 X141.674 Y122.902
G0 X93.589 Y122.902
G0 X93.589 Y122.439
G1 F2700 E36.37923
G1 F1200 X87.783 Y116.633 E36.65233
G0 F6000 X87.783 Y116.068
G1 F1200 X92.751 Y121.036 E36.88601
G0 F6000 X92.733 Y120.452
G1 F1200 X87.783 Y115.501 E37.11887
G0 F6000 X87.783 Y114.935
G1 F1200 X92.733 Y119.886 E37.35172
G0 F6000 X92.733 Y119.32
G1 F1200 X87.758 Y114.345 E37.58573
G1 F2700 E32.58573
G0 F6000 X87.302 Y114.407
G0 X87.156 Y113.872
G0 X86.773 Y113.544
G0 X69.148 Y113.397
G0 X69.148 Y112.171
G0 X87.667 Y112.098
G0 X87.667 Y112.557
G1 F2700 E37.58573
G1 F1200 X92.732 Y117.622 E37.82397
G0 F6000 X92.732 Y117.057
G1 F1200 X88.233 Y112.557 E38.03562
G0 F6000 X88.799 Y112.557
G1 F1200 X92.732 Y116.49 E38.22061
G0 F6000 X92.732 Y115.925
G1 F1200 X89.364 Y112.557 E38.37903
G0 F6000 X89.93 Y112.557
G1 F1200 X92.732 Y115.359 E38.51083
G0 F6000 X92.732 Y114.793
G1 F1200 X90.496 Y112.557 E38.61601
G0 F6000 X91.061 Y112.557
G1 F1200 X92.731 Y114.227 E38.69456
G0 F6000 X92.731 Y113.661
G1 F1200 X91.627 Y112.557 E38.74649
G0 F6000 X92.193 Y112.557
G1 F1200 X92.731 Y113.096 E38.77181
G0 F6000 X93.191 Y113.096
G0 X93.191 Y118.188
G0 X92.732 Y118.188
G1 F1200 X87.102 Y112.557 E39.03666
G0 F6000 X86.536 Y112.557
G1 F1200 X92.732 Y118.754 E39.32812
G1 F2700 E34.32812
G0 F6000 X93.191 Y118.754
G0 X93.119 Y112.17
G0 X69.148 Y112.171
G0 X69.148 Y113.397
G0 X86.773 Y113.544
G0 X87.156 Y113.872
G0 X87.399 Y122.83
G0 X92.458 Y122.902
G0 X92.458 Y122.439
G1 F2700 E39.32812
G1 F1200 X87.784 Y117.765 E39.54797
G0 F6000 X87.784 Y117.2
G1 F1200 X93.024 Y122.439 E39.79442
G0 F6000 X93.024 Y122.902
G0 X91.892 Y122.902
G0 X91.892 Y122.439
G1 F1200 X87.784 Y118.331 E39.98765
G0 F6000 X87.785 Y118.897
G1 F1200 X91.327 Y122.439 E40.15425
G0 F6000 X90.761 Y122.439
G1 F1200 X87.785 Y119.463 E40.29424
G0 F6000 X87.785 Y120.029
G1 F1200 X90.196 Y122.44 E40.40764
G0 F6000 X89.63 Y122.44
G1 F1200 X87.785 Y120.595 E40.49443
G0 F6000 X87.786 Y121.162
G1 F1200 X89.065 Y122.44 E40.55456
G0 F6000 X88.499 Y122.44
G1 F1200 X87.786 Y121.727 E40.5881
G0 F6000 X87.786 Y122.293
G1 F1200 X87.933 Y122.44 E40.59501
G0 F6000 X87.933 Y122.902
G0 X87.399 Y122.83
G0 X87.054 Y113.741
G0 X86.357 Y113.504
G0 X86.469 Y113.056
G1 F1200 X85.97 Y112.557 E40.61848
G0 F6000 X85.854 Y113.007
G1 F1200 X85.405 Y112.557 E40.63963
G0 F6000 X85.289 Y113.007
G1 F1200 X84.839 Y112.557 E40.66079
G0 F6000 X84.723 Y113.007
G1 F1200 X84.273 Y112.557 E40.68196
G0 F6000 X84.157 Y113.007
G1 F1200 X83.708 Y112.557 E40.7031
G0 F6000 X83.592 Y113.007
G1 F1200 X83.142 Y112.557 E40.72427
G0 F6000 X83.026 Y113.007
G1 F1200 X82.576 Y112.557 E40.74544
G0 F6000 X82.46 Y113.007
G1 F1200 X82.01 Y112.557 E40.7666
G0 F6000 X81.894 Y113.007
G1 F1200 X81.445 Y112.557 E40.78775
G0 F6000 X81.329 Y113.007
G1 F1200 X80.879 Y112.557 E40.80891
G0 F6000 X80.763 Y113.007
G1 F1200 X80.313 Y112.557 E40.83008
G0 F6000 X80.197 Y113.007
G1 F1200 X79.748 Y112.557 E40.85122
G0 F6000 X79.632 Y113.007
G1 F1200 X79.182 Y112.557 E40.87239
G0 F6000 X79.066 Y113.007
G1 F1200 X78.616 Y112.557 E40.89356
G0 F6000 X78.5 Y113.007
G1 F1200 X78.051 Y112.557 E40.9147
G0 F6000 X77.935 Y113.007
G1 F1200 X77.485 Y112.557 E40.93587
G0 F6000 X77.369 Y113.007
G1 F1200 X76.919 Y112.557 E40.95703
G0 F6000 X76.803 Y113.007
G1 F1200 X76.354 Y112.557 E40.97818
G0 F6000 X76.238 Y113.007
G1 F1200 X75.788 Y112.557 E40.99934
G0 F6000 X75.672 Y113.007
G1 F1200 X75.222 Y112.557 E41.02051
G0 F6000 X75.106 Y113.007
G1 F1200 X74.657 Y112.557 E41.04165
G0 F6000 X74.541 Y113.007
G1 F1200 X74.091 Y112.557 E41.06282
G0 F6000 X73.975 Y113.007
G1 F1200 X73.525 Y112.557 E41.08399
G0 F6000 X73.409 Y113.007
G1 F1200 X72.959 Y112.557 E41.10515
G0 F6000 X72.844 Y113.007
G1 F1200 X72.394 Y112.557 E41.12632
G0 F6000 X72.278 Y113.007
G1 F1200 X71.828 Y112.557 E41.14749
G0 F6000 X71.712 Y113.007
G1 F1200 X71.262 Y112.557 E41.16865
G0 F6000 X71.146 Y113.007
G1 F1200 X70.697 Y112.557 E41.1898
G0 F6000 X70.581 Y113.007
G1 F1200 X70.131 Y112.557 E41.21096
G0 F6000 X70.015 Y113.007
G1 F1200 X69.565 Y112.557 E41.23213
G0 F6000 X69.565 Y112.198
;MESH:NONMESH
G0 F300 X69.565 Y112.198 Z0.4
G0 F6000 X69.566 Y112.098
G0 X69.148 Y112.171
G0 X69.148 Y113.397
G0 X87.054 Y113.741
G0 X87.227 Y123.002
;TIME_ELAPSED:85.500094
;LAYER:1
M106 S85
;TYPE:WALL-INNER
;MESH:Copy of stringart  string art machine (1).stl
G1 F1350 X147.774 Y123.002 E43.24593
G1 X147.774 Y114.569 E43.52641
G1 X147.813 Y114.288 E43.53585
G1 X147.974 Y113.968 E43.54776
G1 X148.303 Y113.686 E43.56218
G1 X148.641 Y113.569 E43.57407
G1 X166.024 Y113.568 E44.15223
G1 X166.024 Y111.998 E44.20445
G1 X141.708 Y111.999 E45.0132
G1 X141.707 Y120.859 E45.30789
G1 X141.668 Y121.14 E45.31732
G1 X141.507 Y121.46 E45.32924
G1 X141.178 Y121.742 E45.34365
G1 X140.839 Y121.859 E45.35558
G1 X94.291 Y121.859 E46.90377
G1 X93.82 Y121.742 E46.91991
G1 X93.491 Y121.459 E46.93435
G1 X93.33 Y121.14 E46.94623
G1 X93.291 Y120.859 E46.95567
G1 X93.291 Y111.998 E47.25039
G1 X68.976 Y111.999 E48.05911
G1 X68.976 Y113.569 E48.11132
G1 X86.226 Y113.569 E48.68506
G1 X86.697 Y113.686 E48.7012
G1 X87.027 Y113.968 E48.71564
G1 X87.187 Y114.288 E48.72754
G1 X87.226 Y114.569 E48.73698
G1 X87.227 Y123.002 E49.01746
G0 F7500 X86.827 Y123.402
G1 F1350 X148.174 Y123.402 E51.05787
G1 X148.174 Y114.446 E51.35575
G1 X148.294 Y114.208 E51.36461
G1 X148.491 Y114.039 E51.37324
G1 X148.693 Y113.969 E51.38036
G1 X166.424 Y113.968 E51.97009
G1 X166.424 Y111.598 E52.04892
G1 X141.308 Y111.599 E52.88428
G1 X141.307 Y120.983 E53.19639
G1 X141.187 Y121.22 E53.20523
G1 X140.99 Y121.389 E53.21386
G1 X140.788 Y121.459 E53.22097
G1 X94.291 Y121.459 E54.76747
G1 X94.008 Y121.389 E54.77716
G1 X93.811 Y121.219 E54.78582
G1 X93.691 Y120.983 E54.79462
G1 X93.691 Y111.598 E55.10677
G1 X68.576 Y111.599 E55.9421
G1 X68.576 Y113.969 E56.02093
G1 X86.226 Y113.969 E56.60797
G1 X86.509 Y114.039 E56.61766
G1 X86.707 Y114.208 E56.62632
G1 X86.826 Y114.446 E56.63517
G1 X86.827 Y123.402 E56.93305
G1 F2700 E51.93305
G0 F7500 X87.096 Y123.132
G0 X87.156 Y113.872
G0 X86.773 Y113.544
G0 X69.148 Y113.397
G0 X69.148 Y112.171
G0 X93.119 Y112.17
G0 X93.362 Y121.555
G0 X93.744 Y121.884
G0 X141.535 Y121.687
G0 X141.607 Y120.98
G0 X140.867 Y120.98
;TYPE:WALL-OUTER
G1 F2700 E56.93305
G1 F1350 X140.742 Y121.057 E56.93793
G1 X94.214 Y121.059 E58.48546
G1 X94.091 Y120.903 E58.49207
G1 X94.091 Y111.198 E58.81486
G1 X68.176 Y111.199 E59.67679
G1 X68.176 Y114.369 E59.78223
G1 X86.303 Y114.369 E60.38513
G1 X86.426 Y114.526 E60.39177
G1 X86.427 Y123.802 E60.70029
G1 X148.574 Y123.802 E62.76731
G1 X148.574 Y114.526 E63.07583
G1 X148.614 Y114.448 E63.07874
G1 X148.739 Y114.371 E63.08363
G1 X166.824 Y114.368 E63.68514
G1 X166.824 Y111.198 E63.79057
G1 X140.908 Y111.199 E64.65254
G1 X140.907 Y120.902 E64.97526
G1 X140.867 Y120.98 E64.97818
G1 F2700 E59.97818
G0 F7500 X141.607 Y120.98
G0 X141.88 Y112.171
G0 X165.852 Y112.17
G0 X165.852 Y113.396
G0 X148.228 Y113.543
G0 X147.919 Y113.809
G0 X147.674 Y122.642
G0 X147.414 Y122.642
;TYPE:SKIN
G1 F2700 E64.97818
G1 F1330 X140.997 Y122.637 E65.19481
G1 F1307.5 X117.596 Y122.635 E65.99843
G1 F1301.2 X94.195 Y122.633 E66.80593
G1 F1323.5 X93.628 Y122.641 E66.82517
G1 F1350 X87.587 Y122.642 E67.0261
G1 X87.585 Y114.548 E67.2953
G1 X87.534 Y114.183 E67.30756
G1 X87.317 Y113.747 E67.32376
G1 X86.865 Y113.361 E67.34353
G1 X86.269 Y113.214 E67.36395
G1 X69.336 Y113.209 E67.92714
G1 X69.336 Y112.359 E67.95541
G1 X92.931 Y112.359 E68.74018
G1 X92.932 Y120.88 E69.02359
