;FLAVOR:Marlin
;TIME:1257
;Filament used: 0.359953m
;Layer height: 0.12
;MINX:82.7
;MINY:112.7
;MINZ:0.12
;MAXX:152.301
;MAXY:122.299
;MAXZ:1.44
;Generated with Cura_SteamEngine 5.4.0
M140 S50
M105
M190 S50
M104 S200
M105
M109 S200
M82 ;absolute extrusion mode
; Ender 3 Custom Start G-code
G92 E0 ; Reset Extruder
G28 ; Home all axes
G1 Z2.0 F3000 ; Move Z Axis up little to prevent scratching of Heat Bed
G1 X0.1 Y20 Z0.3 F5000.0 ; Move to start position
G1 X0.1 Y200.0 Z0.3 F1500.0 E15 ; Draw the first line
G1 X0.4 Y200.0 Z0.3 F5000.0 ; Move to side a little
G1 X0.4 Y20 Z0.3 F1500.0 E30 ; Draw the second line
G92 E0 ; Reset Extruder
G1 Z2.0 F3000 ; Move Z Axis up little to prevent scratching of Heat Bed
G1 X5 Y20 Z0.3 F5000.0 ; Move over to prevent blob squish
G92 E0
G92 E0
G1 F2700 E-5
;LAYER_COUNT:12
;LAYER:0
M107
;MESH:Daring Kup.stl
G0 F6000 X86.669 Y120.235 Z0.12
;TYPE:WALL-INNER
G1 F2700 E0
G1 F1200 X86.213 Y120.014 E0.01011
G1 X85.929 Y119.826 E0.01691
G1 X85.676 Y119.608 E0.02357
G1 X85.41 Y119.301 E0.03168
G1 X85.246 Y119.052 E0.03763
G1 X85.092 Y118.741 E0.04456
G1 X84.978 Y118.392 E0.05188
G1 X84.917 Y118.078 E0.05827
G1 X84.897 Y117.747 E0.06488
G1 X84.917 Y117.421 E0.0714
G1 X84.986 Y117.073 E0.07848
G1 X85.096 Y116.75 E0.08529
G1 X85.241 Y116.456 E0.09183
G1 X85.41 Y116.199 E0.09797
G1 X85.642 Y115.926 E0.10512
G1 X85.896 Y115.7 E0.11191
G1 X86.179 Y115.507 E0.11874
G1 X86.652 Y115.27 E0.1293
G1 X87.335 Y115.135 E0.14319
G1 X87.871 Y115.175 E0.15392
G1 X88.215 Y115.248 E0.16094
G1 X88.525 Y115.359 E0.16751
G1 X88.833 Y115.517 E0.17442
G1 X89.049 Y115.662 E0.17961
G1 X89.364 Y115.939 E0.18798
G1 X89.584 Y116.198 E0.19476
G1 X89.769 Y116.483 E0.20154
G1 X89.917 Y116.794 E0.20841
G1 X90.008 Y117.064 E0.2141
G1 X90.077 Y117.406 E0.22106
G1 X90.099 Y117.738 E0.2277
G1 X90.078 Y118.08 E0.23454
G1 X89.998 Y118.468 E0.24245
G1 X89.887 Y118.778 E0.24902
G1 X89.769 Y119.017 E0.25434
G1 X89.585 Y119.302 E0.26111
G1 X89.307 Y119.619 E0.26952
G1 X89.046 Y119.841 E0.27636
G1 X88.768 Y120.021 E0.28297
G1 X88.453 Y120.171 E0.28993
G1 X88.215 Y120.252 E0.29495
G1 X87.86 Y120.328 E0.30219
G1 X87.545 Y120.352 E0.3085
G1 X87.182 Y120.334 E0.31575
G1 X86.669 Y120.235 E0.32618
G1 F2700 E-4.67382
G0 F6000 X86.645 Y120.334
G0 X87.342 Y120.523
G0 X87.342 Y121.699
G0 X87.264 Y121.899
G1 F2700 E0.32618
G1 F1200 X147.79 Y121.894 E1.53404
G1 X148.06 Y121.867 E1.53945
G1 X148.354 Y121.82 E1.54539
G1 X148.638 Y121.753 E1.55122
G1 X148.921 Y121.667 E1.55712
G1 X149.177 Y121.571 E1.56258
G1 X149.436 Y121.453 E1.56825
G1 X149.701 Y121.313 E1.57424
G1 X149.952 Y121.156 E1.58014
G1 X150.179 Y120.993 E1.58572
G1 X150.405 Y120.807 E1.59156
G1 X150.613 Y120.612 E1.59725
G1 X150.809 Y120.402 E1.60298
G1 X150.999 Y120.17 E1.60897
G1 X151.167 Y119.936 E1.61472
G1 X151.307 Y119.708 E1.62006
G1 X151.453 Y119.435 E1.62623
G1 X151.572 Y119.172 E1.632
G1 X151.666 Y118.922 E1.63733
G1 X151.757 Y118.625 E1.64352
G1 X151.818 Y118.359 E1.64897
G1 X151.867 Y118.059 E1.65504
G1 X151.894 Y117.794 E1.66035
G1 X151.9 Y117.275 E1.67071
G1 X151.867 Y116.94 E1.67743
G1 X151.817 Y116.635 E1.6836
G1 X151.755 Y116.365 E1.68912
G1 X151.666 Y116.079 E1.6951
G1 X151.572 Y115.827 E1.70047
G1 X151.452 Y115.563 E1.70626
G1 X151.307 Y115.29 E1.71242
G1 X151.155 Y115.046 E1.71816
G1 X150.993 Y114.822 E1.72368
G1 X150.809 Y114.597 E1.72948
G1 X150.613 Y114.387 E1.73521
G1 X150.403 Y114.192 E1.74093
G1 X150.171 Y114.001 E1.74693
G1 X149.944 Y113.84 E1.75248
G1 X149.71 Y113.692 E1.75801
G1 X149.436 Y113.547 E1.76419
G1 X149.177 Y113.429 E1.76987
G1 X148.921 Y113.333 E1.77533
G1 X148.638 Y113.246 E1.78124
G1 X148.353 Y113.181 E1.78707
G1 X148.037 Y113.13 E1.79346
G1 X147.736 Y113.101 E1.79949
G1 X87.21 Y113.107 E3.00735
G1 X86.94 Y113.133 E3.01277
G1 X86.648 Y113.18 E3.01867
G1 X86.358 Y113.248 E3.02461
G1 X86.078 Y113.333 E3.03045
G1 X85.826 Y113.428 E3.03583
G1 X85.567 Y113.546 E3.04151
G1 X85.291 Y113.694 E3.04776
G1 X85.057 Y113.838 E3.05324
G1 X84.82 Y114.007 E3.05905
G1 X84.604 Y114.185 E3.06464
G1 X84.399 Y114.375 E3.07021
G1 X84.182 Y114.607 E3.07655
G1 X84.013 Y114.812 E3.08185
G1 X83.839 Y115.057 E3.08785
G1 X83.687 Y115.3 E3.09357
G1 X83.547 Y115.563 E3.09952
G1 X83.428 Y115.829 E3.10533
G1 X83.333 Y116.079 E3.11067
G1 X83.257 Y116.329 E3.11588
G1 X83.179 Y116.656 E3.12259
G1 X83.133 Y116.938 E3.12829
G1 X83.1 Y117.275 E3.13505
G1 X83.106 Y117.794 E3.14541
G1 X83.133 Y118.062 E3.15078
G1 X83.179 Y118.347 E3.15655
G1 X83.235 Y118.596 E3.16164
G1 X83.329 Y118.91 E3.16818
G1 X83.427 Y119.172 E3.17376
G1 X83.558 Y119.457 E3.18002
G1 X83.694 Y119.71 E3.18575
G1 X83.833 Y119.936 E3.19105
G1 X84.001 Y120.17 E3.1968
G1 X84.191 Y120.402 E3.20278
G1 X84.387 Y120.613 E3.20853
G1 X84.596 Y120.807 E3.21422
G1 X84.906 Y121.064 E3.22226
G1 X85.289 Y121.307 E3.23131
G1 X85.556 Y121.449 E3.23734
G1 X85.808 Y121.564 E3.24287
G1 X86.103 Y121.676 E3.24917
G1 X86.351 Y121.751 E3.25434
G1 X86.647 Y121.819 E3.2604
G1 X86.963 Y121.87 E3.26679
G1 X87.264 Y121.899 E3.27282
G1 F2700 E-1.72718
G0 F6000 X87.27 Y121.798
G0 X97.861 Y121.699
G0 X97.748 Y120.035
G0 X97.861 Y119.828
G1 F2700 E3.27282
G1 F1200 X97.499 Y119.852 E3.28006
G1 X97.122 Y119.825 E3.2876
G1 X96.781 Y119.752 E3.29456
G1 X96.471 Y119.641 E3.30113
G1 X96.163 Y119.483 E3.30804
G1 X95.886 Y119.291 E3.31477
G1 X95.631 Y119.06 E3.32163
G1 X95.457 Y118.861 E3.32691
G1 X95.153 Y118.413 E3.33771
G1 X94.988 Y117.932 E3.34786
G1 X94.918 Y117.585 E3.35493
G1 X94.898 Y117.288 E3.36087
G1 X94.914 Y116.954 E3.36754
G1 X94.983 Y116.583 E3.37507
G1 X95.083 Y116.287 E3.3813
G1 X95.265 Y115.918 E3.38952
G1 X95.458 Y115.639 E3.39629
G1 X95.689 Y115.381 E3.4032
G1 X95.889 Y115.206 E3.4085
G1 X96.228 Y114.979 E3.41664
G1 X96.543 Y114.829 E3.4236
G1 X96.781 Y114.748 E3.42862
G1 X97.136 Y114.672 E3.43587
G1 X97.529 Y114.647 E3.44372
G1 X97.796 Y114.664 E3.44906
G1 X98.216 Y114.748 E3.45761
G1 X98.526 Y114.859 E3.46418
G1 X98.769 Y114.979 E3.46959
G1 X99.047 Y115.159 E3.4762
G1 X99.308 Y115.381 E3.48304
G1 X99.586 Y115.7 E3.49148
G1 X99.771 Y115.986 E3.49828
G1 X99.916 Y116.291 E3.50502
G1 X100.018 Y116.608 E3.51166
G1 X100.082 Y116.951 E3.51863
G1 X100.099 Y117.213 E3.52387
G1 X100.082 Y117.548 E3.53056
G1 X100.01 Y117.927 E3.53826
G1 X99.913 Y118.216 E3.54434
G1 X99.771 Y118.513 E3.55091
G1 X99.592 Y118.792 E3.55753
G1 X99.307 Y119.119 E3.56618
G1 X99.05 Y119.338 E3.57292
G1 X98.765 Y119.523 E3.5797
G1 X98.454 Y119.671 E3.58658
G1 X98.216 Y119.752 E3.59159
G1 X97.861 Y119.828 E3.59884
G1 F2700 E-1.40116
G0 F6000 X99.743 Y118.891
G0 X105.292 Y118.948
G0 X108.34 Y119.733
G1 F2700 E3.59884
G1 F1200 X107.861 Y119.828 E3.60858
G1 X107.5 Y119.852 E3.6158
G1 X107.123 Y119.825 E3.62335
G1 X106.782 Y119.752 E3.63031
G1 X106.472 Y119.641 E3.63688
G1 X106.164 Y119.483 E3.64378
G1 X105.887 Y119.291 E3.65051
G1 X105.688 Y119.117 E3.65579
G1 X105.461 Y118.866 E3.66254
G1 X105.152 Y118.412 E3.6735
G1 X104.987 Y117.927 E3.68372
G1 X104.915 Y117.545 E3.69148
G1 X104.899 Y117.201 E3.69835
G1 X104.92 Y116.911 E3.70415
G1 X104.999 Y116.532 E3.71188
G1 X105.08 Y116.294 E3.7169
G1 X105.229 Y115.983 E3.72378
G1 X105.46 Y115.636 E3.7321
G1 X105.689 Y115.382 E3.73892
G1 X105.951 Y115.159 E3.74579
G1 X106.229 Y114.979 E3.7524
G1 X106.544 Y114.829 E3.75936
G1 X106.782 Y114.748 E3.76438
G1 X107.137 Y114.672 E3.77162
G1 X107.539 Y114.647 E3.77966
G1 X107.797 Y114.664 E3.78482
G1 X108.335 Y114.766 E3.79575
G1 X108.766 Y114.978 E3.80533
G1 X109.052 Y115.162 E3.81212
G1 X109.313 Y115.384 E3.81896
G1 X109.585 Y115.697 E3.82723
G1 X109.768 Y115.979 E3.83394
G1 X109.918 Y116.294 E3.8409
G1 X110.001 Y116.54 E3.84608
G1 X110.079 Y116.913 E3.85369
G1 X110.099 Y117.215 E3.85973
G1 X110.082 Y117.546 E3.86634
G1 X110.011 Y117.927 E3.87408
G1 X109.914 Y118.216 E3.88016
G1 X109.728 Y118.59 E3.8885
G1 X109.54 Y118.862 E3.8951
G1 X109.313 Y119.115 E3.90188
G1 X109.05 Y119.339 E3.90877
G1 X108.836 Y119.482 E3.91391
G1 X108.34 Y119.733 E3.925
G1 F2700 E-1.075
G0 F6000 X108.373 Y119.829
G0 X109.508 Y119.175
G0 X115.327 Y118.986
G0 X116.659 Y119.732
G1 F2700 E3.925
G1 F1200 X116.165 Y119.483 E3.93604
G1 X115.886 Y119.29 E3.94281
G1 X115.634 Y119.062 E3.94959
G1 X115.414 Y118.803 E3.95638
G1 X115.152 Y118.409 E3.96582
G1 X114.988 Y117.927 E3.97598
G1 X114.92 Y117.586 E3.98292
G1 X114.9 Y117.21 E3.99043
G1 X114.92 Y116.915 E3.99633
G1 X115 Y116.532 E4.00414
G1 X115.081 Y116.294 E4.00916
G1 X115.268 Y115.916 E4.01757
G1 X115.414 Y115.698 E4.02281
G1 X115.774 Y115.277 E4.03386
G1 X116.235 Y114.978 E4.04483
G1 X116.66 Y114.767 E4.0543
G1 X117.138 Y114.672 E4.06402
G1 X117.531 Y114.647 E4.07188
G1 X117.797 Y114.664 E4.0772
G1 X118.34 Y114.767 E4.08823
G1 X118.829 Y115.015 E4.09917
G1 X119.226 Y115.277 E4.10866
G1 X119.539 Y115.636 E4.11817
G1 X119.732 Y115.917 E4.12497
G1 X119.919 Y116.294 E4.13337
G1 X120.02 Y116.608 E4.13995
G1 X120.08 Y116.913 E4.14616
G1 X120.1 Y117.288 E4.15365
G1 X120.08 Y117.585 E4.15959
G1 X120.022 Y117.887 E4.16573
G1 X119.919 Y118.206 E4.17242
G1 X119.772 Y118.515 E4.17925
G1 X119.538 Y118.866 E4.18766
G1 X119.31 Y119.118 E4.19445
G1 X119.114 Y119.29 E4.19965
G1 X118.835 Y119.483 E4.20642
G1 X118.341 Y119.732 E4.21746
G1 X117.862 Y119.828 E4.22721
G1 X117.501 Y119.852 E4.23443
G1 X117.124 Y119.825 E4.24197
G1 X116.659 Y119.732 E4.25143
G1 F2700 E-0.74857
G0 F6000 X116.639 Y119.834
G0 X117.847 Y119.653
G0 X119.502 Y119.181
G0 X125.265 Y118.903
G0 X126.662 Y119.733
G1 F2700 E4.25143
G1 F1200 X126.232 Y119.521 E4.261
G1 X125.888 Y119.291 E4.26926
G1 X125.629 Y119.057 E4.27623
G1 X125.415 Y118.803 E4.28285
G1 X125.231 Y118.52 E4.28959
G1 X125.089 Y118.223 E4.29616
G1 X124.989 Y117.927 E4.30239
G1 X124.921 Y117.585 E4.30935
G1 X124.901 Y117.213 E4.31679
G1 X124.921 Y116.913 E4.32279
G1 X125.001 Y116.532 E4.33056
G1 X125.112 Y116.222 E4.33713
G1 X125.272 Y115.91 E4.34413
G1 X125.459 Y115.64 E4.35068
G1 X125.688 Y115.384 E4.35753
G1 X125.886 Y115.21 E4.36279
G1 X126.165 Y115.017 E4.36956
G1 X126.66 Y114.768 E4.38062
G1 X127.139 Y114.672 E4.39037
G1 X127.532 Y114.647 E4.39823
G1 X127.798 Y114.664 E4.40355
G1 X128.218 Y114.748 E4.4121
G1 X128.528 Y114.859 E4.41867
G1 X128.84 Y115.019 E4.42566
G1 X129.11 Y115.206 E4.43222
G1 X129.368 Y115.439 E4.43916
G1 X129.54 Y115.636 E4.44438
G1 X129.733 Y115.917 E4.45118
G1 X129.92 Y116.294 E4.45958
G1 X130.021 Y116.608 E4.46616
G1 X130.081 Y116.911 E4.47232
G1 X130.101 Y117.213 E4.47836
G1 X130.083 Y117.56 E4.4853
G1 X130.013 Y117.927 E4.49275
G1 X129.916 Y118.216 E4.49884
G1 X129.773 Y118.515 E4.50545
G1 X129.539 Y118.866 E4.51387
G1 X129.312 Y119.117 E4.52062
G1 X129.052 Y119.338 E4.52743
G1 X128.767 Y119.523 E4.53421
G1 X128.528 Y119.641 E4.53953
G1 X128.218 Y119.752 E4.5461
G1 X127.863 Y119.828 E4.55335
G1 X127.502 Y119.852 E4.56057
G1 X127.125 Y119.825 E4.56811
G1 X126.662 Y119.733 E4.57753
G1 F2700 E-0.42247
G0 F6000 X126.637 Y119.834
G0 X128.132 Y119.609
G0 X129.739 Y118.902
G0 X135.325 Y118.98
G0 X137.125 Y119.825
G1 F2700 E4.57753
G1 F1200 X136.784 Y119.752 E4.58449
G1 X136.474 Y119.641 E4.59106
G1 X136.166 Y119.483 E4.59797
G1 X135.89 Y119.292 E4.60467
G1 X135.634 Y119.06 E4.61156
G1 X135.414 Y118.8 E4.61836
G1 X135.229 Y118.514 E4.62516
G1 X135.089 Y118.219 E4.63167
G1 X134.99 Y117.927 E4.63783
G1 X134.929 Y117.625 E4.64397
G1 X134.901 Y117.288 E4.65072
G1 X134.923 Y116.911 E4.65826
G1 X135.002 Y116.532 E4.66598
G1 X135.114 Y116.219 E4.67262
G1 X135.229 Y115.986 E4.6778
G1 X135.414 Y115.7 E4.6846
G1 X135.692 Y115.381 E4.69305
G1 X135.953 Y115.159 E4.69988
G1 X136.231 Y114.979 E4.70649
G1 X136.546 Y114.829 E4.71346
G1 X136.784 Y114.748 E4.71847
G1 X137.139 Y114.672 E4.72572
G1 X137.533 Y114.647 E4.7336
G1 X137.799 Y114.664 E4.73891
G1 X138.219 Y114.748 E4.74746
G1 X138.529 Y114.859 E4.75403
G1 X138.772 Y114.979 E4.75944
G1 X139.05 Y115.159 E4.76605
G1 X139.311 Y115.381 E4.77289
G1 X139.589 Y115.7 E4.78133
G1 X139.774 Y115.986 E4.78813
G1 X139.917 Y116.287 E4.79478
G1 X140.005 Y116.542 E4.80016
G1 X140.082 Y116.914 E4.80774
G1 X140.102 Y117.288 E4.81522
G1 X140.082 Y117.585 E4.82116
G1 X140.014 Y117.927 E4.82812
G1 X139.888 Y118.282 E4.83564
G1 X139.736 Y118.58 E4.84231
G1 X139.589 Y118.801 E4.84761
G1 X139.311 Y119.118 E4.85602
G1 X139.053 Y119.338 E4.86279
G1 X138.768 Y119.523 E4.86957
G1 X138.531 Y119.64 E4.87484
G1 X138.144 Y119.772 E4.883
G1 X137.869 Y119.827 E4.8886
G1 X137.503 Y119.852 E4.89592
G1 X137.125 Y119.825 E4.90348
G1 F2700 E-0.09652
G0 F6000 X137.109 Y119.925
G0 X138.183 Y119.586
G0 X139.74 Y118.901
G0 X145.326 Y118.981
G0 X147.126 Y119.825
G1 F2700 E4.90348
G1 F1200 X146.785 Y119.752 E4.91044
G1 X146.475 Y119.641 E4.91701
G1 X146.167 Y119.483 E4.92392
G1 X145.951 Y119.338 E4.92911
G1 X145.635 Y119.06 E4.93751
G1 X145.416 Y118.801 E4.94428
G1 X145.23 Y118.515 E4.95109
G1 X145.083 Y118.206 E4.95792
G1 X144.99 Y117.927 E4.96379
G1 X144.922 Y117.585 E4.97075
G1 X144.902 Y117.213 E4.97818
G1 X144.922 Y116.913 E4.98418
G1 X145.002 Y116.532 E4.99195
G1 X145.113 Y116.222 E4.99852
G1 X145.231 Y115.983 E5.00384
G1 X145.415 Y115.698 E5.01061
G1 X145.693 Y115.381 E5.01902
G1 X145.954 Y115.159 E5.02586
G1 X146.232 Y114.979 E5.03247
G1 X146.547 Y114.829 E5.03943
G1 X146.785 Y114.748 E5.04445
G1 X147.14 Y114.672 E5.0517
G1 X147.533 Y114.647 E5.05955
G1 X147.857 Y114.67 E5.06604
G1 X148.322 Y114.765 E5.07551
G1 X148.787 Y114.985 E5.08577
G1 X149.072 Y115.172 E5.09258
G1 X149.313 Y115.381 E5.09894
G1 X149.556 Y115.654 E5.10623
G1 X149.75 Y115.941 E5.11315
G1 X149.908 Y116.257 E5.1202
G1 X150.014 Y116.574 E5.12687
G1 X150.082 Y116.915 E5.13381
G1 X150.103 Y117.29 E5.1413
G1 X150.086 Y117.548 E5.14646
G1 X150.013 Y117.932 E5.15426
G1 X149.904 Y118.25 E5.16097
G1 X149.76 Y118.542 E5.16747
G1 X149.575 Y118.824 E5.1742
G1 X149.353 Y119.079 E5.18095
G1 X149.102 Y119.303 E5.18766
G1 X148.825 Y119.492 E5.19435
G1 X148.359 Y119.722 E5.20472
G1 X147.857 Y119.83 E5.21497
G1 X147.503 Y119.852 E5.22205
G1 X147.126 Y119.825 E5.22959
G0 F6000 X147.105 Y119.924
G0 X148.358 Y119.833
G0 X148.218 Y119.347
;TYPE:WALL-OUTER
G1 F1200 X147.793 Y119.434 E5.23825
G1 X147.489 Y119.452 E5.24433
G1 X147.204 Y119.433 E5.25003
G1 X146.914 Y119.373 E5.25594
G1 X146.652 Y119.282 E5.26147
G1 X146.39 Y119.151 E5.26732
G1 X146.154 Y118.99 E5.27302
G1 X145.937 Y118.798 E5.2788
G1 X145.748 Y118.579 E5.28457
G1 X145.589 Y118.338 E5.29033
G1 X145.462 Y118.077 E5.29613
G1 X145.376 Y117.823 E5.30148
G1 X145.318 Y117.52 E5.30763
G1 X145.302 Y117.237 E5.31329
G1 X145.319 Y116.965 E5.31873
G1 X145.381 Y116.661 E5.32492
G1 X145.472 Y116.399 E5.33046
G1 X145.603 Y116.137 E5.3363
G1 X145.748 Y115.92 E5.34151
G1 X145.957 Y115.682 E5.34783
G1 X146.177 Y115.491 E5.35364
G1 X146.409 Y115.338 E5.35919
G1 X146.676 Y115.208 E5.36512
G1 X146.939 Y115.12 E5.37065
G1 X147.209 Y115.066 E5.37615
G1 X147.507 Y115.047 E5.38211
G1 X147.78 Y115.064 E5.38756
G1 X148.223 Y115.155 E5.39659
G1 X148.599 Y115.339 E5.40494
G1 X148.838 Y115.498 E5.41067
G1 X149.049 Y115.682 E5.41626
G1 X149.246 Y115.906 E5.42221
G1 X149.408 Y116.148 E5.42802
G1 X149.537 Y116.409 E5.43383
G1 X149.63 Y116.686 E5.43966
G1 X149.685 Y116.965 E5.44534
G1 X149.703 Y117.264 E5.45132
G1 X149.683 Y117.547 E5.45698
G1 X149.624 Y117.836 E5.46286
G1 X149.536 Y118.094 E5.4683
G1 X149.412 Y118.346 E5.47391
G1 X149.252 Y118.587 E5.47968
G1 X149.063 Y118.804 E5.48542
G1 X148.847 Y118.994 E5.49117
G1 X148.612 Y119.152 E5.49682
G1 X148.218 Y119.347 E5.50559
G1 F2700 E0.50559
G0 F6000 X148.358 Y119.833
G0 X146.871 Y119.609
G0 X145.326 Y118.981
G0 X139.74 Y118.901
G0 X137.203 Y119.433
G1 F2700 E5.50559
G1 F1200 X136.913 Y119.373 E5.5115
G1 X136.651 Y119.282 E5.51703
G1 X136.389 Y119.151 E5.52288
G1 X136.153 Y118.99 E5.52858
G1 X135.936 Y118.798 E5.53436
G1 X135.747 Y118.578 E5.54015
G1 X135.588 Y118.337 E5.54591
G1 X135.467 Y118.089 E5.55142
G1 X135.376 Y117.823 E5.55703
G1 X135.321 Y117.547 E5.56265
G1 X135.301 Y117.236 E5.56887
G1 X135.319 Y116.964 E5.57431
G1 X135.381 Y116.661 E5.58048
G1 X135.473 Y116.396 E5.58608
G1 X135.601 Y116.141 E5.59177
G1 X135.763 Y115.901 E5.59755
G1 X135.956 Y115.682 E5.60337
