;FLAVOR:Marlin
;TIME:515
;Filament used: 0.14716m
;Layer height: 0.12
;MINX:102.7
;MINY:112.7
;MINZ:0.12
;MAXX:132.301
;MAXY:122.3
;MAXZ:1.44
;Generated with Cura_SteamEngine 5.4.0
M140 S50
M105
M190 S50
M104 S200
M105
M109 S200
M82 ;absolute extrusion mode
; Ender 3 Custom Start G-code
G92 E0 ; Reset Extruder
G28 ; Home all axes
G1 Z2.0 F3000 ; Move Z Axis up little to prevent scratching of Heat Bed
G1 X0.1 Y20 Z0.3 F5000.0 ; Move to start position
G1 X0.1 Y200.0 Z0.3 F1500.0 E15 ; Draw the first line
G1 X0.4 Y200.0 Z0.3 F5000.0 ; Move to side a little
G1 X0.4 Y20 Z0.3 F1500.0 E30 ; Draw the second line
G92 E0 ; Reset Extruder
G1 Z2.0 F3000 ; Move Z Axis up little to prevent scratching of Heat Bed
G1 X5 Y20 Z0.3 F5000.0 ; Move over to prevent blob squish
G92 E0
G92 E0
G1 F2700 E-5
;LAYER_COUNT:12
;LAYER:0
M107
;MESH:Daring Kup (1).stl
G0 F6000 X108.341 Y120.232 Z0.12
;TYPE:WALL-INNER
G1 F2700 E0
G1 F1200 X107.86 Y120.328 E0.00979
G1 X107.458 Y120.353 E0.01783
G1 X107.18 Y120.334 E0.02339
G1 X106.678 Y120.233 E0.03361
G1 X106.215 Y120.014 E0.04383
G1 X105.93 Y119.827 E0.05063
G1 X105.673 Y119.606 E0.05739
G1 X105.444 Y119.347 E0.06429
G1 X105.248 Y119.056 E0.07129
G1 X105.093 Y118.742 E0.07828
G1 X104.986 Y118.427 E0.08492
G1 X104.918 Y118.081 E0.09196
G1 X104.897 Y117.747 E0.09864
G1 X104.917 Y117.42 E0.10517
G1 X104.998 Y117.032 E0.11308
G1 X105.095 Y116.752 E0.119
G1 X105.243 Y116.452 E0.12567
G1 X105.426 Y116.178 E0.13225
G1 X105.645 Y115.923 E0.13896
G1 X105.899 Y115.697 E0.14574
G1 X106.175 Y115.509 E0.15241
G1 X106.652 Y115.271 E0.16304
G1 X107.181 Y115.166 E0.17381
G1 X107.527 Y115.148 E0.18072
G1 X107.872 Y115.175 E0.18763
G1 X108.335 Y115.267 E0.19705
G1 X108.763 Y115.477 E0.20656
G1 X109.112 Y115.71 E0.21494
G1 X109.365 Y115.939 E0.22175
G1 X109.537 Y116.136 E0.22696
G1 X109.768 Y116.483 E0.23528
G1 X109.908 Y116.77 E0.24166
G1 X109.998 Y117.032 E0.24718
G1 X110.106 Y117.576 E0.25825
G1 X110.079 Y118.078 E0.26828
G1 X110.012 Y118.419 E0.27522
G1 X109.917 Y118.706 E0.28125
G1 X109.768 Y119.017 E0.28813
G1 X109.537 Y119.364 E0.29645
G1 X109.221 Y119.724 E0.30601
G1 X108.827 Y119.986 E0.31545
G1 X108.341 Y120.232 E0.32633
G1 F2700 E-4.67367
G0 F6000 X108.369 Y120.33
G0 X107.892 Y120.506
G0 X107.892 Y121.7
G0 X107.264 Y121.9
G1 F2700 E0.32633
G1 F1200 X127.79 Y121.894 E0.73594
G1 X128.06 Y121.867 E0.74136
G1 X128.354 Y121.82 E0.7473
G1 X128.638 Y121.753 E0.75312
G1 X128.921 Y121.667 E0.75903
G1 X129.177 Y121.571 E0.76448
G1 X129.436 Y121.453 E0.77016
G1 X129.71 Y121.308 E0.77635
G1 X129.945 Y121.161 E0.78188
G1 X130.179 Y120.993 E0.78763
G1 X130.405 Y120.807 E0.79347
G1 X130.613 Y120.612 E0.79916
G1 X130.809 Y120.402 E0.80489
G1 X130.999 Y120.17 E0.81088
G1 X131.167 Y119.936 E0.81662
G1 X131.31 Y119.704 E0.82206
G1 X131.452 Y119.437 E0.8281
G1 X131.573 Y119.172 E0.83391
G1 X131.666 Y118.922 E0.83923
G1 X131.757 Y118.625 E0.84543
G1 X131.818 Y118.359 E0.85088
G1 X131.867 Y118.06 E0.85693
G1 X131.9 Y117.723 E0.86368
G1 X131.894 Y117.203 E0.87406
G1 X131.867 Y116.941 E0.87932
G1 X131.817 Y116.635 E0.88551
G1 X131.752 Y116.353 E0.89128
G1 X131.671 Y116.091 E0.89675
G1 X131.573 Y115.828 E0.90235
G1 X131.441 Y115.541 E0.90866
G1 X131.313 Y115.3 E0.9141
G1 X131.074 Y114.922 E0.92303
G1 X130.809 Y114.597 E0.9314
G1 X130.613 Y114.387 E0.93713
G1 X130.403 Y114.192 E0.94285
G1 X130.171 Y114.001 E0.94885
G1 X129.944 Y113.84 E0.9544
G1 X129.71 Y113.692 E0.95992
G1 X129.436 Y113.547 E0.96611
G1 X129.177 Y113.429 E0.97179
G1 X128.921 Y113.333 E0.97725
G1 X128.638 Y113.246 E0.98316
G1 X128.353 Y113.181 E0.98899
G1 X128.037 Y113.13 E0.99538
G1 X127.736 Y113.101 E1.00141
G1 X107.21 Y113.106 E1.41103
G1 X106.94 Y113.133 E1.41644
G1 X106.646 Y113.18 E1.42239
G1 X106.362 Y113.246 E1.4282
G1 X106.079 Y113.333 E1.43411
G1 X105.823 Y113.429 E1.43957
G1 X105.564 Y113.547 E1.44525
G1 X105.195 Y113.742 E1.45358
G1 X104.821 Y114.007 E1.46273
G1 X104.597 Y114.191 E1.46851
G1 X104.412 Y114.364 E1.47356
G1 X104.191 Y114.598 E1.47999
G1 X104.009 Y114.82 E1.48572
G1 X103.833 Y115.064 E1.49172
G1 X103.693 Y115.289 E1.49701
G1 X103.547 Y115.563 E1.5032
G1 X103.428 Y115.828 E1.509
G1 X103.334 Y116.078 E1.51433
G1 X103.243 Y116.375 E1.52053
G1 X103.179 Y116.653 E1.52622
G1 X103.133 Y116.939 E1.532
G1 X103.1 Y117.274 E1.53872
G1 X103.106 Y117.794 E1.5491
G1 X103.136 Y118.087 E1.55498
G1 X103.179 Y118.347 E1.56024
G1 X103.24 Y118.613 E1.56568
G1 X103.333 Y118.922 E1.57212
G1 X103.427 Y119.171 E1.57743
G1 X103.559 Y119.459 E1.58376
G1 X103.689 Y119.705 E1.58931
G1 X103.833 Y119.936 E1.59474
G1 X104.001 Y120.17 E1.60049
G1 X104.191 Y120.402 E1.60647
G1 X104.387 Y120.613 E1.61222
G1 X104.595 Y120.807 E1.6179
G1 X104.821 Y120.993 E1.62374
G1 X105.037 Y121.148 E1.62904
G1 X105.308 Y121.317 E1.63542
G1 X105.585 Y121.462 E1.64166
G1 X105.823 Y121.571 E1.64688
G1 X106.079 Y121.667 E1.65234
G1 X106.362 Y121.754 E1.65824
G1 X106.633 Y121.816 E1.66379
G1 X106.965 Y121.87 E1.67051
G1 X107.264 Y121.9 E1.6765
G1 F2700 E-3.3235
G0 F6000 X116.636 Y121.698
G0 X116.954 Y119.972
G0 X116.659 Y119.733
G1 F2700 E1.6765
G1 F1200 X116.163 Y119.482 E1.6876
G1 X115.949 Y119.339 E1.69273
G1 X115.628 Y119.057 E1.70126
G1 X115.414 Y118.803 E1.70789
G1 X115.231 Y118.521 E1.7146
G1 X115.081 Y118.206 E1.72156
G1 X114.999 Y117.965 E1.72664
G1 X114.916 Y117.545 E1.73518
G1 X114.9 Y117.212 E1.74183
G1 X114.916 Y116.953 E1.74701
G1 X114.986 Y116.581 E1.75457
G1 X115.081 Y116.294 E1.7606
G1 X115.271 Y115.91 E1.76915
G1 X115.458 Y115.64 E1.7757
G1 X115.686 Y115.384 E1.78255
G1 X115.947 Y115.162 E1.78938
G1 X116.233 Y114.978 E1.79617
G1 X116.656 Y114.77 E1.80558
G1 X117.327 Y114.634 E1.81924
G1 X117.797 Y114.664 E1.82864
G1 X118.338 Y114.766 E1.83962
G1 X118.836 Y115.017 E1.85075
G1 X119.053 Y115.162 E1.85596
G1 X119.373 Y115.444 E1.86447
G1 X119.586 Y115.697 E1.87107
G1 X119.769 Y115.979 E1.87778
G1 X119.919 Y116.294 E1.88474
G1 X120.002 Y116.54 E1.88993
G1 X120.08 Y116.913 E1.89753
G1 X120.1 Y117.215 E1.90357
G1 X120.08 Y117.585 E1.91096
G1 X120.012 Y117.927 E1.91792
G1 X119.915 Y118.216 E1.92401
G1 X119.769 Y118.521 E1.93075
G1 X119.586 Y118.803 E1.93746
G1 X119.372 Y119.057 E1.94409
G1 X119.113 Y119.291 E1.95106
G1 X118.834 Y119.483 E1.95782
G1 X118.545 Y119.634 E1.96432
G1 X118.215 Y119.753 E1.97132
G1 X117.861 Y119.828 E1.97855
G1 X117.501 Y119.852 E1.98575
G1 X117.124 Y119.825 E1.99329
G1 X116.659 Y119.733 E2.00275
G1 F2700 E-2.99725
G0 F6000 X116.636 Y119.834
G0 X117.847 Y119.653
G0 X119.509 Y119.175
G0 X125.328 Y118.984
G0 X126.664 Y119.733
G1 F2700 E2.00275
G1 F1200 X126.237 Y119.523 E2.01224
G1 X125.888 Y119.29 E2.02062
G1 X125.635 Y119.061 E2.02743
G1 X125.463 Y118.864 E2.03265
G1 X125.27 Y118.583 E2.03945
G1 X125.083 Y118.206 E2.04785
G1 X124.99 Y117.927 E2.05372
G1 X124.922 Y117.586 E2.06066
G1 X124.902 Y117.21 E2.06817
G1 X124.922 Y116.915 E2.07407
G1 X125.002 Y116.532 E2.08188
G1 X125.083 Y116.294 E2.0869
G1 X125.232 Y115.983 E2.09378
G1 X125.463 Y115.636 E2.1021
G1 X125.778 Y115.275 E2.11166
G1 X126.237 Y114.978 E2.12257
G1 X126.662 Y114.767 E2.13204
G1 X127.14 Y114.672 E2.14176
G1 X127.462 Y114.647 E2.14821
G1 X127.857 Y114.67 E2.1561
G1 X128.322 Y114.765 E2.16557
G1 X128.787 Y114.985 E2.17584
G1 X129.072 Y115.172 E2.18264
G1 X129.326 Y115.394 E2.18937
G1 X129.588 Y115.697 E2.19737
G1 X129.748 Y115.936 E2.20311
G1 X129.921 Y116.294 E2.21104
G1 X130.022 Y116.608 E2.21763
G1 X130.082 Y116.915 E2.22387
G1 X130.103 Y117.252 E2.23061
G1 X130.083 Y117.578 E2.23712
G1 X130.013 Y117.932 E2.24433
G1 X129.904 Y118.248 E2.251
G1 X129.757 Y118.548 E2.25766
G1 X129.575 Y118.823 E2.26424
G1 X129.355 Y119.077 E2.27095
G1 X129.102 Y119.303 E2.27772
G1 X128.822 Y119.494 E2.28448
G1 X128.526 Y119.645 E2.29111
G1 X128.199 Y119.759 E2.29803
G1 X127.856 Y119.83 E2.30502
G1 X127.503 Y119.852 E2.31207
G1 X127.126 Y119.825 E2.31962
G1 X126.664 Y119.733 E2.32902
G0 F6000 X126.818 Y119.356
;TYPE:WALL-OUTER
G1 F1200 X126.39 Y119.151 E2.33849
G1 X126.152 Y118.989 E2.34423
G1 X125.937 Y118.798 E2.34997
G1 X125.749 Y118.58 E2.35572
G1 X125.59 Y118.339 E2.36148
G1 X125.462 Y118.077 E2.3673
G1 X125.376 Y117.823 E2.37265
G1 X125.318 Y117.521 E2.37879
G1 X125.302 Y117.234 E2.38452
G1 X125.319 Y116.967 E2.38986
G1 X125.381 Y116.661 E2.39609
G1 X125.472 Y116.399 E2.40163
G1 X125.603 Y116.139 E2.40744
G1 X125.765 Y115.899 E2.41322
G1 X126.044 Y115.58 E2.42167
G1 X126.415 Y115.336 E2.43053
G1 X126.817 Y115.144 E2.43942
G1 X127.209 Y115.066 E2.4474
G1 X127.501 Y115.047 E2.45324
G1 X127.78 Y115.064 E2.45882
G1 X128.223 Y115.155 E2.46784
G1 X128.599 Y115.339 E2.4762
G1 X128.838 Y115.498 E2.48193
G1 X129.056 Y115.688 E2.4877
G1 X129.256 Y115.92 E2.49381
G1 X129.404 Y116.142 E2.49913
G1 X129.542 Y116.423 E2.50538
G1 X129.63 Y116.686 E2.51092
G1 X129.685 Y116.965 E2.51659
G1 X129.703 Y117.264 E2.52257
G1 X129.683 Y117.547 E2.52823
G1 X129.624 Y117.836 E2.53412
G1 X129.532 Y118.101 E2.53971
G1 X129.399 Y118.367 E2.54565
G1 X129.241 Y118.6 E2.55127
G1 X129.065 Y118.801 E2.5566
G1 X128.847 Y118.994 E2.56241
G1 X128.593 Y119.163 E2.5685
G1 X128.36 Y119.281 E2.57371
G1 X128.082 Y119.376 E2.57957
G1 X127.792 Y119.434 E2.58547
G1 X127.489 Y119.452 E2.59153
G1 X127.204 Y119.433 E2.59723
G1 X126.818 Y119.356 E2.60509
G1 F2700 E-2.39491
G0 F6000 X126.632 Y119.83
G0 X125.328 Y118.984
G0 X119.509 Y119.175
G0 X116.815 Y119.356
G1 F2700 E2.60509
G1 F1200 X116.385 Y119.149 E2.61461
G1 X116.171 Y119.006 E2.61975
G1 X115.93 Y118.795 E2.62614
G1 X115.746 Y118.58 E2.63179
G1 X115.59 Y118.344 E2.63743
G1 X115.46 Y118.077 E2.64336
G1 X115.375 Y117.826 E2.64865
G1 X115.316 Y117.52 E2.65486
G1 X115.3 Y117.263 E2.66
G1 X115.319 Y116.951 E2.66624
G1 X115.374 Y116.677 E2.67182
G1 X115.47 Y116.399 E2.67769
G1 X115.603 Y116.133 E2.68362
G1 X115.746 Y115.92 E2.68874
G1 X115.95 Y115.685 E2.69495
G1 X116.169 Y115.495 E2.70074
G1 X116.409 Y115.337 E2.70647
G1 X116.81 Y115.147 E2.71533
G1 X117.332 Y115.041 E2.72596
G1 X117.798 Y115.067 E2.73527
G1 X118.184 Y115.144 E2.74313
G1 X118.614 Y115.35 E2.75264
G1 X118.831 Y115.495 E2.75785
G1 X119.07 Y115.705 E2.7642
G1 X119.254 Y115.92 E2.76985
G1 X119.41 Y116.156 E2.77549
G1 X119.54 Y116.423 E2.78142
G1 X119.622 Y116.664 E2.7865
G1 X119.683 Y116.965 E2.79263
G1 X119.7 Y117.276 E2.79884
G1 X119.681 Y117.548 E2.80428
G1 X119.626 Y117.823 E2.80988
G1 X119.53 Y118.101 E2.81575
G1 X119.397 Y118.367 E2.82168
G1 X119.254 Y118.58 E2.8268
G1 X119.07 Y118.795 E2.83245
G1 X118.829 Y119.006 E2.83884
G1 X118.591 Y119.163 E2.84453
G1 X118.339 Y119.288 E2.85015
G1 X118.06 Y119.381 E2.85602
G1 X117.792 Y119.434 E2.86147
G1 X117.487 Y119.452 E2.86757
G1 X117.202 Y119.433 E2.87327
G1 X116.815 Y119.356 E2.88114
G1 F2700 E-2.11886
G0 F6000 X116.628 Y119.831
G0 X115.491 Y119.175
G0 X109.93 Y119.097
G0 X108.183 Y119.856
G1 F2700 E2.88114
G1 F1200 X107.791 Y119.934 E2.88912
G1 X107.484 Y119.953 E2.89525
G1 X107.22 Y119.936 E2.90053
G1 X106.795 Y119.851 E2.90918
G1 X106.384 Y119.65 E2.91831
G1 X106.162 Y119.501 E2.92365
G1 X105.944 Y119.312 E2.92941
G1 X105.755 Y119.095 E2.93515
G1 X105.594 Y118.856 E2.9409
G1 X105.463 Y118.59 E2.94682
G1 X105.37 Y118.315 E2.95261
G1 X105.315 Y118.028 E2.95844
G1 X105.297 Y117.736 E2.96428
G1 X105.317 Y117.452 E2.96996
G1 X105.373 Y117.174 E2.97562
G1 X105.463 Y116.909 E2.98121
G1 X105.601 Y116.633 E2.98736
G1 X105.759 Y116.4 E2.99298
G1 X105.935 Y116.199 E2.99831
G1 X106.153 Y116.006 E3.00412
G1 X106.388 Y115.848 E3.00977
G1 X106.782 Y115.653 E3.01855
G1 X107.22 Y115.564 E3.02747
G1 X107.503 Y115.548 E3.03312
G1 X107.794 Y115.567 E3.03894
G1 X108.181 Y115.644 E3.04682
G1 X108.61 Y115.849 E3.05631
G1 X108.848 Y116.011 E3.06205
G1 X109.063 Y116.202 E3.06779
G1 X109.251 Y116.42 E3.07354
G1 X109.41 Y116.661 E3.0793
G1 X109.538 Y116.923 E3.08512
G1 X109.626 Y117.186 E3.09065
G1 X109.706 Y117.599 E3.09905
G1 X109.681 Y118.031 E3.10768
G1 X109.624 Y118.323 E3.11362
G1 X109.528 Y118.601 E3.11949
G1 X109.397 Y118.861 E3.1253
G1 X109.235 Y119.101 E3.13108
G1 X108.956 Y119.42 E3.13953
G1 X108.607 Y119.652 E3.1479
G1 X108.183 Y119.856 E3.15729
G1 F2700 E-1.84271
G0 F6000 X108.368 Y120.329
G0 X107.892 Y120.506
G0 X107.892 Y121.7
G0 X107.244 Y122.3
G1 F2700 E3.15729
G1 F1200 X127.81 Y122.294 E3.5677
G1 X128.112 Y122.264 E3.57376
G1 X128.476 Y122.203 E3.58112
G1 X128.742 Y122.14 E3.58658
G1 X129.05 Y122.046 E3.59301
G1 X129.331 Y121.941 E3.59899
G1 X129.613 Y121.812 E3.60518
G1 X129.91 Y121.654 E3.61189
G1 X130.167 Y121.493 E3.61795
G1 X130.423 Y121.311 E3.62421
G1 X130.669 Y121.108 E3.63058
G1 X130.896 Y120.896 E3.63678
G1 X131.111 Y120.666 E3.64306
G1 X131.317 Y120.414 E3.64956
G1 X131.5 Y120.158 E3.65584
G1 X131.658 Y119.904 E3.66181
G1 X131.812 Y119.613 E3.66838
G1 X131.943 Y119.325 E3.67469
G1 X132.045 Y119.051 E3.68052
G1 X132.144 Y118.729 E3.68725
G1 X132.211 Y118.436 E3.69325
G1 X132.264 Y118.112 E3.6998
G1 X132.3 Y117.74 E3.70726
G1 X132.294 Y117.181 E3.71841
G1 X132.264 Y116.889 E3.72427
G1 X132.21 Y116.557 E3.73098
G1 X132.138 Y116.249 E3.73729
G1 X132.05 Y115.962 E3.74328
G1 X131.943 Y115.675 E3.7494
G1 X131.812 Y115.387 E3.75571
G1 X131.66 Y115.1 E3.76219
G1 X131.487 Y114.823 E3.76871
G1 X131.311 Y114.578 E3.77473
G1 X131.11 Y114.333 E3.78105
G1 X130.896 Y114.104 E3.78731
G1 X130.667 Y113.89 E3.79356
G1 X130.414 Y113.683 E3.80009
G1 X130.167 Y113.507 E3.80614
G1 X129.91 Y113.346 E3.81219
G1 X129.613 Y113.188 E3.8189
G1 X129.331 Y113.059 E3.82509
G1 X129.05 Y112.954 E3.83108
G1 X128.742 Y112.86 E3.83751
G1 X128.431 Y112.788 E3.84388
G1 X128.112 Y112.736 E3.85033
G1 X127.756 Y112.701 E3.85746
G1 X107.19 Y112.706 E4.26788
G1 X106.888 Y112.736 E4.27394
G1 X106.524 Y112.797 E4.2813
G1 X106.258 Y112.86 E4.28676
G1 X105.95 Y112.954 E4.29318
G1 X105.669 Y113.059 E4.29917
G1 X105.387 Y113.188 E4.30536
G1 X105.09 Y113.346 E4.31207
G1 X104.833 Y113.507 E4.31813
G1 X104.577 Y113.689 E4.32439
G1 X104.333 Y113.89 E4.3307
G1 X104.104 Y114.104 E4.33696
G1 X103.889 Y114.334 E4.34324
G1 X103.691 Y114.576 E4.34948
G1 X103.501 Y114.841 E4.35599
G1 X103.346 Y115.089 E4.36182
G1 X103.188 Y115.387 E4.36855
G1 X103.058 Y115.675 E4.37486
G1 X102.955 Y115.949 E4.3807
G1 X102.856 Y116.271 E4.38742
G1 X102.786 Y116.577 E4.39369
G1 X102.736 Y116.887 E4.39995
G1 X102.7 Y117.257 E4.40737
G1 X102.706 Y117.816 E4.41853
G1 X102.736 Y118.113 E4.42449
G1 X102.786 Y118.423 E4.43075
G1 X102.853 Y118.716 E4.43675
G1 X102.954 Y119.05 E4.44371
G1 X103.057 Y119.325 E4.44957
G1 X103.188 Y119.613 E4.45589
G1 X103.342 Y119.904 E4.46246
G1 X103.5 Y120.158 E4.46843
G1 X103.683 Y120.414 E4.47471
G1 X103.889 Y120.666 E4.4812
G1 X104.104 Y120.896 E4.48749
G1 X104.331 Y121.108 E4.49369
G1 X104.577 Y121.311 E4.50005
G1 X104.815 Y121.48 E4.50588
G1 X105.108 Y121.664 E4.51278
G1 X105.387 Y121.812 E4.51908
G1 X105.669 Y121.941 E4.52527
G1 X105.95 Y122.046 E4.53126
G1 X106.258 Y122.14 E4.53768
G1 X106.555 Y122.209 E4.54377
G1 X106.889 Y122.264 E4.55052
G1 X107.244 Y122.3 E4.55764
G0 F6000 X107.261 Y122.001
G0 X127.884 Y121.784
G0 X127.859 Y121.534
;TYPE:SKIN
G1 F1200 X107.28 Y121.54 E4.96832
G1 X106.957 Y121.505 E4.9748
G1 X106.707 Y121.462 E4.97987
G1 X106.462 Y121.406 E4.98488
G1 X106.086 Y121.294 E4.99271
G1 X105.74 Y121.136 E5.0003
G1 X105.499 Y121.011 E5.00572
G1 X105.219 Y120.834 E5.01233
G1 X104.952 Y120.643 E5.01888
G1 X104.649 Y120.364 E5.0271
G1 X104.444 Y120.147 E5.03306
G1 X104.062 Y119.634 E5.04582
G1 X103.871 Y119.277 E5.0539
G1 X103.719 Y118.937 E5.06133
G1 X103.585 Y118.507 E5.07032
G1 X103.507 Y118.162 E5.07738
G1 X103.465 Y117.751 E5.08563
G1 X103.461 Y117.287 E5.09489
G1 X103.488 Y117.01 E5.10044
G1 X103.531 Y116.732 E5.10605
G1 X103.588 Y116.481 E5.11119
G1 X103.707 Y116.091 E5.11933
G1 X103.859 Y115.75 E5.12678
G1 X104.041 Y115.398 E5.13469
G1 X104.356 Y114.951 E5.1456
G1 X104.647 Y114.639 E5.15411
G1 X104.944 Y114.362 E5.16222
G1 X105.388 Y114.05 E5.17305
G1 X105.721 Y113.87 E5.1806
G1 X106.057 Y113.718 E5.18796
G1 X106.542 Y113.566 E5.1981
G1 X107.139 Y113.466 E5.21018
G1 X127.811 Y113.462 E5.62271
G1 X128.293 Y113.538 E5.63245
G1 X128.541 Y113.594 E5.63753
G1 X128.805 Y113.675 E5.64304
