;FLAVOR:Marlin
;TIME:3129
;Filament used: 1.81702m
;Layer height: 0.16
;MINX:102.7
;MINY:112.7
;MINZ:0.2
;MAXX:132.3
;MAXY:123.153
;MAXZ:30.8
;Generated with Cura_SteamEngine 5.4.0
M140 S50
M105
M190 S50
M104 S200
M105
M109 S200
M82 ;absolute extrusion mode
; Ender 3 Custom Start G-code
G92 E0 ; Reset Extruder
G28 ; Home all axes
G1 Z2.0 F3000 ; Move Z Axis up little to prevent scratching of Heat Bed
G1 X0.1 Y20 Z0.3 F5000.0 ; Move to start position
G1 X0.1 Y200.0 Z0.3 F1500.0 E15 ; Draw the first line
G1 X0.4 Y200.0 Z0.3 F5000.0 ; Move to side a little
G1 X0.4 Y20 Z0.3 F1500.0 E30 ; Draw the second line
G92 E0 ; Reset Extruder
G1 Z2.0 F3000 ; Move Z Axis up little to prevent scratching of Heat Bed
G1 X5 Y20 Z0.3 F5000.0 ; Move over to prevent blob squish
G92 E0
G92 E0
G1 F2700 E-5
;LAYER_COUNT:154
;LAYER:0
M107
;MESH:??????????????? ?????? ?????? ????????? (2).stl
G0 F6000 X115.524 Y121.499 Z0.2
;TYPE:WALL-INNER
G1 F2700 E0
G1 F1200 X114.985 Y121.225 E0.02011
G1 X114.732 Y121.04 E0.03054
G1 X113.96 Y120.267 E0.06687
G1 X113.776 Y120.015 E0.07725
G1 X113.278 Y119.037 E0.11375
G1 X113.181 Y118.739 E0.12418
G1 X112.985 Y117.5 E0.1659
G1 X113.181 Y116.261 E0.20762
G1 X113.278 Y115.963 E0.21804
G1 X113.776 Y114.985 E0.25454
G1 X113.96 Y114.733 E0.26492
G1 X114.732 Y113.96 E0.30126
G1 X114.985 Y113.775 E0.31168
G1 X115.524 Y113.501 E0.33179
G1 X103.5 Y113.5 E0.73171
G1 X103.5 Y121.5 E0.99779
G1 X115.524 Y121.499 E1.39771
G0 F6000 X103.37 Y121.63
G0 X103.1 Y121.9
G1 F1182.3 X116.016 Y121.893 E1.83375
G1 F1129.4 X116.286 Y121.88 E1.8433
G1 F1218.3 X117.5 Y121.926 E1.8831
G1 X118.714 Y121.88 E1.9229
G1 F1129.4 X118.984 Y121.893 E1.93245
G1 F1182.3 X120.458 Y121.9 E1.98221
G1 F1200 X131.9 Y121.9 E2.36278
G1 X131.9 Y113.1 E2.65547
G1 X120.458 Y113.1 E3.03603
G1 F1182.3 X118.984 Y113.107 E3.08579
G1 F1129.4 X118.715 Y113.12 E3.09531
G1 F1218.3 X117.5 Y113.074 E3.13514
G1 X116.285 Y113.12 E3.17497
G1 F1129.4 X116.016 Y113.107 E3.18449
G1 F1182.3 X103.1 Y113.1 E3.62052
G1 F1200 X103.1 Y121.9 E3.91321
G0 F6000 X103.37 Y121.63
G0 X116.223 Y121.65
G0 X116.266 Y121.437
G1 F1173.6 X115.082 Y120.825 E3.95854
G1 F1200 X114.177 Y119.919 E4.00113
G1 X113.591 Y118.771 E4.044
G1 X113.39 Y117.502 E4.08673
G1 X113.591 Y116.229 E4.1296
G1 X114.177 Y115.081 E4.17247
G1 X115.082 Y114.175 E4.21506
G1 F1173.6 X116.264 Y113.565 E4.2603
G1 F1197 X117.499 Y113.416 E4.30177
G1 F1194 X118.734 Y113.563 E4.34335
G1 F1173.6 X119.918 Y114.175 E4.38867
G1 F1200 X120.824 Y115.081 E4.43129
G1 X121.409 Y116.229 E4.47414
G1 X121.611 Y117.502 E4.51701
G1 X121.409 Y118.771 E4.55975
G1 X120.824 Y119.919 E4.60261
G1 X119.918 Y120.825 E4.64522
G1 F1173.6 X118.736 Y121.436 E4.69047
G1 F1197 X117.5 Y121.583 E4.73198
G1 F1194 X116.266 Y121.437 E4.77351
G0 F6000 X116.223 Y121.65
G0 X119.476 Y121.499
G1 F1200 X131.5 Y121.5 E5.17343
G1 X131.5 Y113.5 E5.43951
G1 X119.476 Y113.501 E5.83943
G1 X120.015 Y113.775 E5.85954
G1 X120.268 Y113.959 E5.86995
G1 X121.041 Y114.732 E5.90631
G1 X121.225 Y114.985 E5.91671
G1 X121.723 Y115.962 E5.95318
G1 X121.819 Y116.26 E5.9636
G1 X122.016 Y117.501 E6.00539
G1 X121.819 Y118.74 E6.04712
G1 X121.723 Y119.038 E6.05753
G1 X121.225 Y120.015 E6.094
G1 X121.041 Y120.268 E6.10441
G1 X120.268 Y121.041 E6.14077
G1 X120.015 Y121.225 E6.15117
G1 X119.476 Y121.499 E6.17128
G1 F2700 E1.17128
G0 F6000 X117.453 Y121.499
G0 X117.5 Y121.202
;TYPE:WALL-OUTER
G1 F2700 E6.17128
G1 F1200 X116.354 Y121.024 E6.20986
G1 X115.32 Y120.497 E6.24846
G1 X114.504 Y119.68 E6.28686
G1 X113.976 Y118.645 E6.32551
G1 X113.798 Y117.5 E6.36405
G1 X113.976 Y116.355 E6.40259
G1 X114.504 Y115.32 E6.44123
G1 X115.32 Y114.503 E6.47964
G1 X116.354 Y113.976 E6.51824
G1 X117.5 Y113.797 E6.55682
G1 X118.646 Y113.976 E6.5954
G1 X119.68 Y114.503 E6.634
G1 X120.497 Y115.32 E6.67242
G1 X121.024 Y116.354 E6.71103
G1 X121.203 Y117.5 E6.7496
G1 X121.024 Y118.646 E6.78818
G1 X120.497 Y119.68 E6.82678
G1 X119.68 Y120.497 E6.86521
G1 X118.646 Y121.024 E6.90381
G1 X117.5 Y121.202 E6.94238
G1 F2700 E1.94238
G0 F6000 X117.453 Y121.499
G0 X132.03 Y122.03
G0 X132.3 Y122.3
G1 F2700 E6.94238
G1 F1200 X132.3 Y112.7 E7.26168
G1 X102.7 Y112.7 E8.24618
G1 X102.7 Y122.3 E8.56548
G1 X132.3 Y122.3 E9.54998
G0 F6000 X132.03 Y122.03
G0 X120.68 Y121.399
G0 X120.681 Y121.139
;TYPE:SKIN
G1 F1200 X121.293 Y120.527 E9.57877
G1 X121.547 Y120.178 E9.59312
G1 X122.044 Y119.201 E9.62958
G1 X122.168 Y118.828 E9.64265
G1 X122.381 Y117.497 E9.68749
G1 X122.175 Y116.202 E9.7311
G1 X122.056 Y115.828 E9.74415
G1 X121.546 Y114.82 E9.78173
G1 X121.293 Y114.473 E9.79601
G1 X120.679 Y113.861 E9.82484
G1 X131.14 Y113.86 E10.17278
G1 X131.14 Y121.14 E10.41491
G1 X120.681 Y121.139 E10.76278
G0 F6000 X121.333 Y120.768
G1 F1200 X121.504 Y120.938 E10.7708
G0 F6000 X121.589 Y120.458
G1 F1200 X122.069 Y120.938 E10.79338
G0 F6000 X122.635 Y120.938
G1 F1200 X121.802 Y120.105 E10.83256
G0 F6000 X121.995 Y119.732
G1 F1200 X123.201 Y120.938 E10.88929
G0 F6000 X123.767 Y120.938
G1 F1200 X122.186 Y119.358 E10.96363
G0 F6000 X122.335 Y118.941
G1 F1200 X124.332 Y120.938 E11.05756
G0 F6000 X124.898 Y120.938
G1 F1200 X122.428 Y118.468 E11.17374
G0 F6000 X122.506 Y117.98
G1 F1200 X125.464 Y120.938 E11.31288
G0 F6000 X126.029 Y120.938
G1 F1200 X122.581 Y117.49 E11.47506
G0 F6000 X122.475 Y116.818
G1 F1200 X126.596 Y120.939 E11.6689
G0 F6000 X127.161 Y120.939
G1 F1200 X122.362 Y116.14 E11.89463
G0 F6000 X121.92 Y116.251
G0 X121.519 Y115.343
G0 X121.925 Y115.137
G1 F1200 X127.727 Y120.939 E12.16754
G0 F6000 X128.293 Y120.939
G1 F1200 X121.415 Y114.061 E12.49106
G0 F6000 X121.98 Y114.061
G1 F1200 X128.858 Y120.939 E12.81458
G0 F6000 X129.424 Y120.939
G1 F1200 X122.546 Y114.061 E13.1381
G0 F6000 X123.112 Y114.061
G1 F1200 X129.99 Y120.939 E13.46162
G0 F6000 X130.555 Y120.939
G1 F1200 X123.677 Y114.061 E13.78514
G0 F6000 X124.243 Y114.061
G1 F1200 X130.939 Y120.757 E14.1001
G0 F6000 X130.939 Y120.191
G1 F1200 X124.809 Y114.061 E14.38843
G0 F6000 X125.374 Y114.061
G1 F1200 X130.939 Y119.626 E14.65019
G0 F6000 X130.939 Y119.06
G1 F1200 X125.94 Y114.061 E14.88533
G0 F6000 X126.506 Y114.061
G1 F1200 X130.939 Y118.494 E15.09385
G0 F6000 X130.939 Y117.929
G1 F1200 X127.072 Y114.061 E15.27576
G0 F6000 X127.637 Y114.061
G1 F1200 X130.939 Y117.363 E15.43108
G0 F6000 X130.939 Y116.797
G1 F1200 X128.203 Y114.061 E15.55977
G0 F6000 X128.769 Y114.061
G1 F1200 X130.939 Y116.232 E15.66186
G0 F6000 X130.939 Y115.666
G1 F1200 X129.334 Y114.061 E15.73736
G0 F6000 X129.9 Y114.061
G1 F1200 X130.939 Y115.1 E15.78623
G0 F6000 X130.939 Y114.535
G1 F1200 X130.466 Y114.061 E15.8085
G0 F6000 X130.466 Y113.6
G0 X119.867 Y113.58
G0 X121.81 Y117.479
G0 X120.694 Y119.82
G0 X119.82 Y120.694
G0 X118.719 Y121.254
G0 X117.622 Y121.427
G0 X114.505 Y120.956
G0 X114.32 Y121.139
G1 F1200 X103.86 Y121.14 E16.1564
G1 X103.86 Y113.86 E16.39854
G1 X114.32 Y113.861 E16.74644
G1 X113.707 Y114.475 E16.77529
G1 X113.455 Y114.822 E16.78956
G1 X112.946 Y115.825 E16.82697
G1 X112.831 Y116.176 E16.83925
G1 X112.62 Y117.503 E16.88394
G1 X112.825 Y118.794 E16.92742
G1 X112.946 Y119.174 E16.94068
G1 X113.47 Y120.203 E16.97909
G1 X113.686 Y120.501 E16.99133
G1 X114.32 Y121.139 E17.02125
G0 F6000 X114.504 Y120.956
G0 X113.361 Y118.844
G0 X113.148 Y117.5
G0 X113.339 Y116.291
G0 X113.992 Y114.557
G0 X113.666 Y114.231
G1 F1200 X113.494 Y114.059 E17.02934
G0 F6000 X113.41 Y114.542
G1 F1200 X112.928 Y114.059 E17.05203
G0 F6000 X112.362 Y114.059
G1 F1200 X113.197 Y114.894 E17.09131
G0 F6000 X113.006 Y115.269
G1 F1200 X111.797 Y114.059 E17.1482
G0 F6000 X111.231 Y114.059
G1 F1200 X112.813 Y115.642 E17.22264
G0 F6000 X112.661 Y116.055
G1 F1200 X110.665 Y114.059 E17.31652
G0 F6000 X110.1 Y114.059
G1 F1200 X112.573 Y116.533 E17.43287
G0 F6000 X112.495 Y117.02
G1 F1200 X109.534 Y114.059 E17.57214
G0 F6000 X108.968 Y114.059
G1 F1200 X112.417 Y117.509 E17.7344
G0 F6000 X112.525 Y118.182
G1 F1200 X108.403 Y114.059 E17.92831
G0 F6000 X107.837 Y114.059
G1 F1200 X112.639 Y118.861 E18.15418
G0 F6000 X113.08 Y118.747
G0 X113.478 Y119.651
G0 X113.069 Y119.858
G1 F1200 X107.271 Y114.059 E18.42692
G0 F6000 X106.705 Y114.059
G1 F1200 X113.584 Y120.938 E18.75049
G0 F6000 X113.018 Y120.938
G1 F1200 X106.14 Y114.059 E19.07403
G0 F6000 X105.574 Y114.059
G1 F1200 X112.453 Y120.938 E19.3976
G0 F6000 X111.887 Y120.938
G1 F1200 X105.008 Y114.059 E19.72117
G0 F6000 X104.443 Y114.059
G1 F1200 X111.321 Y120.938 E20.04471
G0 F6000 X110.756 Y120.938
G1 F1200 X104.059 Y114.242 E20.35969
G0 F6000 X104.059 Y114.807
G1 F1200 X110.19 Y120.938 E20.64808
G0 F6000 X109.624 Y120.938
G1 F1200 X104.059 Y115.373 E20.90984
G0 F6000 X104.059 Y115.939
G1 F1200 X109.059 Y120.938 E21.145
G0 F6000 X108.493 Y120.938
G1 F1200 X104.059 Y116.505 E21.35354
G0 F6000 X104.059 Y117.07
G1 F1200 X107.927 Y120.938 E21.53548
G0 F6000 X107.362 Y120.938
G1 F1200 X104.059 Y117.636 E21.69082
G0 F6000 X104.059 Y118.202
G1 F1200 X106.796 Y120.938 E21.81953
G0 F6000 X106.23 Y120.938
G1 F1200 X104.059 Y118.767 E21.92165
G0 F6000 X104.059 Y119.333
G1 F1200 X105.665 Y120.938 E21.99717
G0 F6000 X105.099 Y120.938
G1 F1200 X104.059 Y119.899 E22.04606
G0 F6000 X104.059 Y120.464
G1 F1200 X104.533 Y120.938 E22.06836
G0 F6000 X104.533 Y121.3
;MESH:NONMESH
G0 F300 X104.533 Y121.3 Z0.4
G0 F6000 X104.532 Y121.4
G0 X115.524 Y121.499
;TIME_ELAPSED:46.105832
;LAYER:1
M106 S85
;TYPE:WALL-INNER
;MESH:??????????????? ?????? ?????? ????????? (2).stl
G1 F1350 X114.985 Y121.225 E22.08847
G1 X114.732 Y121.04 E22.09889
G1 X113.96 Y120.267 E22.13523
G1 X113.776 Y120.015 E22.14561
G1 X113.278 Y119.037 E22.18211
G1 X113.181 Y118.739 E22.19253
G1 X112.985 Y117.5 E22.23426
G1 X113.181 Y116.261 E22.27598
G1 X113.278 Y115.963 E22.2864
G1 X113.776 Y114.985 E22.3229
G1 X113.96 Y114.733 E22.33328
G1 X114.732 Y113.96 E22.36962
G1 X114.985 Y113.775 E22.38004
G1 X115.524 Y113.501 E22.40015
G1 X103.5 Y113.5 E22.80007
G1 X103.5 Y121.5 E23.06615
G1 X115.524 Y121.499 E23.46607
G0 F7500 X103.37 Y121.63
G0 X103.1 Y121.9
G1 F1330 X116.016 Y121.893 E23.9021
G1 F1270.6 X116.286 Y121.88 E23.91166
G1 F1370.6 X117.5 Y121.926 E23.95146
G1 X118.714 Y121.88 E23.99126
G1 F1270.6 X118.984 Y121.893 E24.00081
G1 F1330 X120.458 Y121.9 E24.05057
G1 F1350 X131.9 Y121.9 E24.43114
G1 X131.9 Y113.1 E24.72382
G1 X120.458 Y113.1 E25.10439
G1 F1330 X118.984 Y113.107 E25.15415
G1 F1270.6 X118.715 Y113.12 E25.16367
G1 F1370.6 X117.5 Y113.074 E25.2035
G1 X116.285 Y113.12 E25.24333
G1 F1270.6 X116.016 Y113.107 E25.25285
G1 F1330 X103.1 Y113.1 E25.68888
G1 F1350 X103.1 Y121.9 E25.98157
G0 F7500 X103.37 Y121.63
G0 X116.223 Y121.65
G0 X116.266 Y121.437
G1 F1320.3 X115.082 Y120.825 E26.0269
G1 F1350 X114.177 Y119.919 E26.06949
G1 X113.591 Y118.771 E26.11236
G1 X113.39 Y117.502 E26.15509
G1 X113.591 Y116.229 E26.19796
G1 X114.177 Y115.081 E26.24083
G1 X115.082 Y114.175 E26.28342
G1 F1320.3 X116.264 Y113.565 E26.32865
G1 F1346.6 X117.499 Y113.416 E26.37013
G1 F1343.3 X118.734 Y113.563 E26.4117
G1 F1320.3 X119.918 Y114.175 E26.45703
G1 F1350 X120.824 Y115.081 E26.49965
G1 X121.409 Y116.229 E26.5425
G1 X121.611 Y117.502 E26.58537
G1 X121.409 Y118.771 E26.62811
G1 X120.824 Y119.919 E26.67096
G1 X119.918 Y120.825 E26.71358
G1 F1320.3 X118.736 Y121.436 E26.75883
G1 F1346.6 X117.5 Y121.583 E26.80033
G1 F1343.3 X116.266 Y121.437 E26.84187
G0 F7500 X116.223 Y121.65
G0 X119.476 Y121.499
G1 F1350 X131.5 Y121.5 E27.24179
G1 X131.5 Y113.5 E27.50787
G1 X119.476 Y113.501 E27.90779
G1 X120.015 Y113.775 E27.9279
G1 X120.268 Y113.959 E27.93831
G1 X121.041 Y114.732 E27.97467
G1 X121.225 Y114.985 E27.98507
G1 X121.723 Y115.962 E28.02154
G1 X121.819 Y116.26 E28.03196
G1 X122.016 Y117.501 E28.07375
G1 X121.819 Y118.74 E28.11548
G1 X121.723 Y119.038 E28.12589
G1 X121.225 Y120.015 E28.16236
G1 X121.041 Y120.268 E28.17277
G1 X120.268 Y121.041 E28.20913
G1 X120.015 Y121.225 E28.21953
G1 X119.476 Y121.499 E28.23964
G1 F2700 E23.23964
G0 F7500 X117.453 Y121.499
G0 X117.5 Y121.202
;TYPE:WALL-OUTER
G1 F2700 E28.23964
G1 F1350 X116.354 Y121.024 E28.27822
G1 X115.32 Y120.497 E28.31682
G1 X114.504 Y119.68 E28.35522
G1 X113.976 Y118.645 E28.39387
G1 X113.798 Y117.5 E28.43241
G1 X113.976 Y116.355 E28.47095
G1 X114.504 Y115.32 E28.50959
G1 X115.32 Y114.503 E28.548
G1 X116.354 Y113.976 E28.5866
G1 X117.5 Y113.797 E28.62518
G1 X118.646 Y113.976 E28.66375
G1 X119.68 Y114.503 E28.70235
G1 X120.497 Y115.32 E28.74078
G1 X121.024 Y116.354 E28.77938
G1 X121.203 Y117.5 E28.81796
G1 X121.024 Y118.646 E28.85654
G1 X120.497 Y119.68 E28.89514
G1 X119.68 Y120.497 E28.93357
G1 X118.646 Y121.024 E28.97217
G1 X117.5 Y121.202 E29.01074
G1 F2700 E24.01074
G0 F7500 X117.453 Y121.499
G0 X132.03 Y122.03
G0 X132.3 Y122.3
G1 F2700 E29.01074
G1 F1350 X132.3 Y112.7 E29.33004
G1 X102.7 Y112.7 E30.31454
G1 X102.7 Y122.3 E30.63384
G1 X132.3 Y122.3 E31.61834
G0 F7500 X132.03 Y122.03
G0 X120.68 Y121.399
G0 X120.681 Y121.139
;TYPE:SKIN
G1 F1350 X121.293 Y120.527 E31.64712
G1 X121.547 Y120.178 E31.66148
G1 X122.044 Y119.201 E31.69794
G1 X122.168 Y118.828 E31.71101
G1 X122.381 Y117.497 E31.75584
G1 X122.175 Y116.202 E31.79946
G1 X122.056 Y115.828 E31.81251
G1 X121.546 Y114.82 E31.85008
G1 X121.293 Y114.473 E31.86437
G1 X120.679 Y113.861 E31.8932
G1 X131.14 Y113.86 E32.24114
G1 X131.14 Y121.14 E32.48327
G1 X120.681 Y121.139 E32.83114
G0 F7500 X120.68 Y121.399
G0 X120.21 Y121.311
G0 X121.021 Y120.058
G0 X121.639 Y118.844
G0 X121.853 Y117.5
G0 X121.681 Y116.412
G0 X121.118 Y114.671
G0 X121.488 Y114.402
G1 F1350 X121.83 Y114.06 E32.84722
G0 F7500 X122.395 Y114.06
G1 F1350 X121.721 Y114.735 E32.87895
G0 F7500 X121.912 Y115.109
G1 F1350 X122.961 Y114.06 E32.92829
G0 F7500 X123.527 Y114.06
G1 F1350 X122.103 Y115.484 E32.99527
G0 F7500 X122.279 Y115.873
G1 F1350 X124.092 Y114.06 E33.08055
G0 F7500 X124.658 Y114.06
G1 F1350 X122.397 Y116.321 E33.1869
G0 F7500 X122.474 Y116.81
G1 F1350 X125.224 Y114.06 E33.31625
G0 F7500 X125.79 Y114.06
G1 F1350 X122.552 Y117.298 E33.46856
G0 F7500 X122.52 Y117.895
G1 F1350 X126.355 Y114.06 E33.64895
G0 F7500 X126.921 Y114.06
G1 F1350 X122.413 Y118.568 E33.86099
G0 F7500 X122.185 Y119.361
G1 F1350 X127.487 Y114.06 E34.11035
G0 F7500 X128.052 Y114.06
G1 F1350 X121.174 Y120.939 E34.4339
G0 F7500 X121.739 Y120.939
G1 F1350 X128.618 Y114.06 E34.75746
G0 F7500 X129.184 Y114.06
G1 F1350 X122.305 Y120.939 E35.08103
G0 F7500 X122.871 Y120.939
G1 F1350 X129.749 Y114.06 E35.40458
G0 F7500 X130.315 Y114.06
G1 F1350 X123.436 Y120.939 E35.72814
G0 F7500 X124.002 Y120.939
G1 F1350 X130.881 Y114.06 E36.05171
G0 F7500 X130.939 Y114.568
G1 F1350 X124.568 Y120.939 E36.35138
G0 F7500 X125.133 Y120.939
G1 F1350 X130.939 Y115.133 E36.62448
G0 F7500 X130.939 Y115.699
G1 F1350 X125.699 Y120.939 E36.87095
G0 F7500 X126.264 Y120.94
G1 F1350 X130.939 Y116.265 E37.09085
G0 F7500 X130.939 Y116.831
G1 F1350 X126.83 Y120.94 E37.28412
G0 F7500 X127.395 Y120.94
G1 F1350 X130.939 Y117.396 E37.45082
G0 F7500 X130.939 Y117.962
G1 F1350 X127.961 Y120.94 E37.5909
G0 F7500 X128.527 Y120.94
G1 F1350 X130.939 Y118.528 E37.70435
G0 F7500 X130.939 Y119.093
G1 F1350 X129.092 Y120.94 E37.79123
G0 F7500 X129.658 Y120.94
G1 F1350 X130.939 Y119.659 E37.85148
G0 F7500 X130.939 Y120.225
G1 F1350 X130.224 Y120.94 E37.88512
G0 F7500 X130.79 Y120.94
G1 F1350 X130.939 Y120.79 E37.89215
G0 F7500 X131.4 Y120.79
G0 X131.582 Y121.582
G0 X117.5 Y121.447
G0 X114.505 Y120.956
G0 X114.32 Y121.139
G1 F1350 X103.86 Y121.14 E38.24005
G1 X103.86 Y113.86 E38.48218
G1 X114.32 Y113.861 E38.83008
G1 X113.707 Y114.475 E38.85894
G1 X113.455 Y114.822 E38.8732
G1 X112.946 Y115.825 E38.91061
G1 X112.831 Y116.176 E38.9229
G1 X112.62 Y117.503 E38.96759
G1 X112.825 Y118.794 E39.01107
G1 X112.946 Y119.174 E39.02433
G1 X113.47 Y120.203 E39.06274
G1 X113.686 Y120.501 E39.07498
G1 X114.32 Y121.139 E39.10489
G0 F7500 X113.549 Y120.644
G1 F1350 X113.254 Y120.939 E39.11877
G0 F7500 X112.688 Y120.939
G1 F1350 X113.311 Y120.317 E39.14805
G0 F7500 X113.114 Y119.947
G1 F1350 X112.123 Y120.939 E39.19469
G0 F7500 X111.557 Y120.939
G1 F1350 X112.924 Y119.571 E39.25901
G0 F7500 X112.741 Y119.189
G1 F1350 X110.991 Y120.939 E39.34132
G0 F7500 X110.426 Y120.939
